(.../eduards/EAGLE/ulps/pcb-gcode.ulp)
(Copyright 2005 - 2012 by John Johnson)
(See readme.txt for licensing terms.)
(This file generated from the board:)
(.../eduards/EAGLE/projects/Tesla.brd)
(Current profile is .../EAGLE/ulps/profiles/generic.pp  )
(This file generated 2/16/23 12:47 PM)
(Settings from pcb-machine.h)
(  Tool Size)
(0.2000 )
(Z Axis Settings)
(  High     Up        Down     Drill)
(12.7000 	2.5400 	-0.1778 	-1.5000 )
(spindle on time = 3.0000)
(milling depth = -0.2540)
(text depth = -0.1270)
(tool change at 12.7000 15.2400 15.4000 )
(feed rate xy = F508.00 )
(feed rate z  = F254.00 )
(Settings from pcb-defaults.h)
(isolate min = 0.1000)
(isolate max = 5.0000)
(isolate step = 0.2500)
(Generated top outlines, top drill, )
(Unit of measure: mm)
( Tool|       Size       |  Min Sub |  Max Sub |   Count )
( T01  4.115mm 0.1620in 0.0000in 0.0000in )
( T02  0.813mm 0.0320in 0.0000in 0.0000in )
( T03  1.000mm 0.0394in 0.0000in 0.0000in )
( T04  1.016mm 0.0400in 0.0000in 0.0000in )
( T05  1.321mm 0.0520in 0.0000in 0.0000in )
( T06  1.499mm 0.0590in 0.0000in 0.0000in )
(Metric Mode)
G21
(Absolute Coordinates)
G90
M05
G00 Z15.4000 
G00 X12.7000 Y15.2400 
M06 T01  ; 4.1148 
G01 Z0.0000 F254.00 
M06 T01  ; 4.1148 
G00 Z2.5400 
M03
G04 P3.000000
G00 Z2.540000
G00 X47.2440 Y26.6700 
G01 Z-1.5000 F254.00 
G01 Z2.540000
(R2.5400  P1.000000)
M05
G00 Z15.4000 
M06 T02  ; 0.8128 
G01 Z0.0000 F254.00 
M06 T02  ; 0.8128 
G00 Z2.5400 
M03
G04 P3.000000
G00 Z2.540000
G00 X35.5600 Y13.9700 
G01 Z-1.5000 F254.00 
G01 Z2.540000
(R2.5400  P1.000000)
(G00 Z2.540000)
G00 X36.8300 Y7.6200 
G01 Z-1.500000
G01 Z2.540000
(G00 Z2.540000)
G00 X36.8300 Y2.5400 
G01 Z-1.500000
G01 Z2.540000
(G00 Z2.540000)
G00 X41.9100 Y2.5400 
G01 Z-1.500000
G01 Z2.540000
(G00 Z2.540000)
G00 X43.1800 Y13.9700 
G01 Z-1.500000
G01 Z2.540000
(G00 Z2.540000)
G00 X44.4500 Y7.6200 
G01 Z-1.500000
G01 Z2.540000
(G00 Z2.540000)
G00 X49.5300 Y2.5400 
G01 Z-1.500000
G01 Z2.540000
(G00 Z2.540000)
G00 X19.0500 Y15.2400 
G01 Z-1.500000
G01 Z2.540000
(G00 Z2.540000)
G00 X19.0500 Y2.5400 
G01 Z-1.500000
G01 Z2.540000
(G00 Z2.540000)
G00 X26.6700 Y10.1600 
G01 Z-1.500000
G01 Z2.540000
(G00 Z2.540000)
G00 X26.6700 Y2.5400 
G01 Z-1.500000
G01 Z2.540000
(G00 Z2.540000)
G00 X29.2100 Y2.5400 
G01 Z-1.500000
G01 Z2.540000
M05
G00 Z15.4000 
M06 T03  ; 1.0000 
G01 Z0.0000 F254.00 
M06 T03  ; 1.0000 
G00 Z2.5400 
M03
G04 P3.000000
G00 Z2.540000
G00 X45.7200 Y64.7700 
G01 Z-1.5000 F254.00 
G01 Z2.540000
(R2.5400  P1.000000)
(G00 Z2.540000)
G00 X30.4800 Y64.7700 
G01 Z-1.500000
G01 Z2.540000
M05
G00 Z15.4000 
M06 T04  ; 1.0160 
G01 Z0.0000 F254.00 
M06 T04  ; 1.0160 
G00 Z2.5400 
M03
G04 P3.000000
G00 Z2.540000
G00 X39.3700 Y71.1200 
G01 Z-1.5000 F254.00 
G01 Z2.540000
(R2.5400  P1.000000)
(G00 Z2.540000)
G00 X6.3500 Y43.0530 
G01 Z-1.500000
G01 Z2.540000
(G00 Z2.540000)
G00 X6.3500 Y48.3870 
G01 Z-1.500000
G01 Z2.540000
(G00 Z2.540000)
G00 X6.3500 Y63.3730 
G01 Z-1.500000
G01 Z2.540000
(G00 Z2.540000)
G00 X6.3500 Y71.1200 
G01 Z-1.500000
G01 Z2.540000
(G00 Z2.540000)
G00 X6.3500 Y28.0670 
G01 Z-1.500000
G01 Z2.540000
(G00 Z2.540000)
G00 X7.6200 Y5.2070 
G01 Z-1.500000
G01 Z2.540000
(G00 Z2.540000)
G00 X7.6200 Y20.1930 
G01 Z-1.500000
G01 Z2.540000
(G00 Z2.540000)
G00 X13.9700 Y5.2070 
G01 Z-1.500000
G01 Z2.540000
(G00 Z2.540000)
G00 X13.9700 Y20.1930 
G01 Z-1.500000
G01 Z2.540000
(G00 Z2.540000)
G00 X16.5100 Y43.0530 
G01 Z-1.500000
G01 Z2.540000
(G00 Z2.540000)
G00 X16.5100 Y48.3870 
G01 Z-1.500000
G01 Z2.540000
(G00 Z2.540000)
G00 X16.5100 Y63.3730 
G01 Z-1.500000
G01 Z2.540000
(G00 Z2.540000)
G00 X16.5100 Y28.0670 
G01 Z-1.500000
G01 Z2.540000
M05
G00 Z15.4000 
M06 T05  ; 1.3208 
G01 Z0.0000 F254.00 
M06 T05  ; 1.3208 
G00 Z2.5400 
M03
G04 P3.000000
G00 Z2.540000
G00 X44.4500 Y41.9608 
G01 Z-1.5000 F254.00 
G01 Z2.540000
(R2.5400  P1.000000)
(G00 Z2.540000)
G00 X44.4500 Y46.9646 
G01 Z-1.500000
G01 Z2.540000
M05
G00 Z15.4000 
M06 T06  ; 1.4986 
G01 Z0.0000 F254.00 
M06 T06  ; 1.4986 
G00 Z2.5400 
M03
G04 P3.000000
G00 Z2.540000
G00 X27.9400 Y32.2580 
G01 Z-1.5000 F254.00 
G01 Z2.540000
(R2.5400  P1.000000)
(G00 Z2.540000)
G00 X27.9400 Y21.0820 
G01 Z-1.500000
G01 Z2.540000
(G00 Z2.540000)
G00 X27.9400 Y26.6700 
G01 Z-1.500000
G01 Z2.540000
T01 
G00 Z12.7000 
M05
M02
