(.../eduards/EAGLE/ulps/pcb-gcode.ulp)
(Copyright 2005 - 2012 by John Johnson)
(See readme.txt for licensing terms.)
(This file generated from the board:)
(.../eduards/EAGLE/projects/Tesla.brd)
(Current profile is .../EAGLE/ulps/profiles/generic.pp  )
(This file generated 2/16/23 12:47 PM)
(Settings from pcb-machine.h)
(  Tool Size)
(0.2000 )
(Z Axis Settings)
(  High     Up        Down     Drill)
(12.7000 	2.5400 	-0.1778 	-1.5000 )
(spindle on time = 3.0000)
(milling depth = -0.2540)
(text depth = -0.1270)
(tool change at 12.7000 15.2400 15.4000 )
(feed rate xy = F508.00 )
(feed rate z  = F254.00 )
(Settings from pcb-defaults.h)
(isolate min = 0.1000)
(isolate max = 5.0000)
(isolate step = 0.2500)
(Generated top outlines, top drill, )
(Unit of measure: mm)
(Metric Mode)
G21
(Absolute Coordinates)
G90
G00 X0.0000 Y0.0000 
M03
G04 P3.000000
G00 Z2.5400 
G00 X7.0587 Y50.4747 
G01 Z-0.1778 F254.00 
G01 X6.7801 Y50.5494 F508.00 
G01 X6.4942 Y50.5870 
G01 X6.2058 Y50.5870 
G01 X5.9199 Y50.5494 
G01 X5.6413 Y50.4747 
G01 X5.3749 Y50.3644 
G01 X5.1251 Y50.2202 
G01 X4.8963 Y50.0446 
G01 X4.6924 Y49.8407 
G01 X4.5168 Y49.6119 
G01 X4.3726 Y49.3621 
G01 X4.2623 Y49.0957 
G01 X4.1876 Y48.8171 
G01 X4.1500 Y48.5312 
G01 X4.1500 Y43.0358 
G01 X4.1876 Y42.7499 
G01 X4.2623 Y42.4713 
G01 X4.3726 Y42.2049 
G01 X4.5168 Y41.9551 
G01 X4.6924 Y41.7263 
G01 X4.8963 Y41.5224 
G01 X5.1251 Y41.3468 
G01 X5.3749 Y41.2026 
G01 X5.6413 Y41.0923 
G01 X5.9199 Y41.0176 
G01 X6.2058 Y40.9800 
G01 X15.7658 Y40.9800 
G01 X15.8013 Y40.9653 
G01 X16.0799 Y40.8906 
G01 X16.3658 Y40.8530 
G01 X16.6542 Y40.8530 
G01 X16.9401 Y40.8906 
G01 X17.2187 Y40.9653 
G01 X17.4851 Y41.0756 
G01 X17.7349 Y41.2198 
G01 X17.9637 Y41.3954 
G01 X18.1676 Y41.5993 
G01 X18.3432 Y41.8281 
G01 X18.4873 Y42.0779 
G01 X18.5977 Y42.3443 
G01 X18.6724 Y42.6229 
G01 X18.7100 Y42.9088 
G01 X18.7100 Y48.5312 
G01 X18.6724 Y48.8171 
G01 X18.5977 Y49.0957 
G01 X18.4873 Y49.3621 
G01 X18.3432 Y49.6119 
G01 X18.1676 Y49.8407 
G01 X17.9637 Y50.0446 
G01 X17.7349 Y50.2202 
G01 X17.4851 Y50.3644 
G01 X17.2187 Y50.4747 
G01 X16.9401 Y50.5494 
G01 X16.6542 Y50.5870 
G01 X16.3658 Y50.5870 
G01 X16.0799 Y50.5494 
G01 X15.8013 Y50.4747 
G01 X15.7658 Y50.4600 
G01 X7.0942 Y50.4600 
G01 X7.0587 Y50.4747 
G00 Z2.5400 
G00 X50.3473 Y48.2709 
G01 Z-0.1778 F254.00 
G01 X50.1705 Y48.4065 F508.00 
G01 X49.9775 Y48.5180 
G01 X49.7716 Y48.6032 
G01 X49.5564 Y48.6609 
G01 X49.3354 Y48.6900 
G01 X47.1900 Y48.6900 
G01 X47.1900 Y63.9161 
G01 X47.2480 Y64.0165 
G01 X47.3332 Y64.2224 
G01 X47.3909 Y64.4376 
G01 X47.4200 Y64.6586 
G01 X47.4200 Y64.8814 
G01 X47.3909 Y65.1024 
G01 X47.3332 Y65.3176 
G01 X47.2480 Y65.5235 
G01 X47.1365 Y65.7165 
G01 X47.0009 Y65.8933 
G01 X46.8433 Y66.0509 
G01 X46.6665 Y66.1865 
G01 X46.4735 Y66.2980 
G01 X46.2676 Y66.3832 
G01 X46.0524 Y66.4409 
G01 X45.8314 Y66.4700 
G01 X45.6086 Y66.4700 
G01 X45.3876 Y66.4409 
G01 X45.1724 Y66.3832 
G01 X44.9665 Y66.2980 
G01 X44.7735 Y66.1865 
G01 X44.5967 Y66.0509 
G01 X43.1691 Y64.6233 
G01 X43.0335 Y64.4465 
G01 X42.9220 Y64.2535 
G01 X42.8368 Y64.0476 
G01 X42.7791 Y63.8324 
G01 X42.7500 Y63.6114 
G01 X42.7500 Y48.4346 
G01 X39.2797 Y48.4346 
G01 X39.0512 Y48.3984 
G01 X38.8311 Y48.3269 
G01 X38.6249 Y48.2219 
G01 X38.4378 Y48.0859 
G01 X38.2741 Y47.9222 
G01 X38.1381 Y47.7350 
G01 X38.0331 Y47.5289 
G01 X37.9616 Y47.3088 
G01 X37.9254 Y47.0803 
G01 X37.9254 Y46.8489 
G01 X37.9616 Y46.6204 
G01 X38.0331 Y46.4003 
G01 X38.1381 Y46.1942 
G01 X38.2741 Y46.0070 
G01 X38.4378 Y45.8433 
G01 X38.6249 Y45.7073 
G01 X38.8311 Y45.6023 
G01 X39.0512 Y45.5308 
G01 X39.2797 Y45.4946 
G01 X43.5961 Y45.4946 
G01 X43.6965 Y45.4366 
G01 X43.9024 Y45.3514 
G01 X44.1176 Y45.2937 
G01 X44.3386 Y45.2646 
G01 X44.5614 Y45.2646 
G01 X44.7544 Y45.2900 
G01 X47.8300 Y45.2900 
G01 X47.8300 Y1.1586 
G01 X47.8591 Y0.9376 
G01 X47.9168 Y0.7224 
G01 X48.0020 Y0.5165 
G01 X48.1135 Y0.3235 
G01 X48.2491 Y0.1467 
G01 X48.4067 Y-0.0109 
G01 X48.5835 Y-0.1465 
G01 X48.7765 Y-0.2580 
G01 X48.9824 Y-0.3432 
G01 X49.1976 Y-0.4009 
G01 X49.4186 Y-0.4300 
G01 X49.6414 Y-0.4300 
G01 X49.8624 Y-0.4009 
G01 X50.0776 Y-0.3432 
G01 X50.2835 Y-0.2580 
G01 X50.4765 Y-0.1465 
G01 X50.6533 Y-0.0109 
G01 X50.8109 Y0.1467 
G01 X50.9465 Y0.3235 
G01 X51.0580 Y0.5165 
G01 X51.1432 Y0.7224 
G01 X51.2009 Y0.9376 
G01 X51.2300 Y1.1586 
G01 X51.2300 Y46.7954 
G01 X51.2009 Y47.0164 
G01 X51.1432 Y47.2316 
G01 X51.0580 Y47.4375 
G01 X50.9465 Y47.6305 
G01 X50.8109 Y47.8073 
G01 X50.6533 Y47.9649 
G01 X50.3473 Y48.2709 
G00 Z2.5400 
G00 X19.6143 Y3.9023 
G01 Z-0.1778 F254.00 
G01 X19.3942 Y3.9738 F508.00 
G01 X19.1657 Y4.0100 
G01 X18.9343 Y4.0100 
G01 X18.7058 Y3.9738 
G01 X18.4857 Y3.9023 
G01 X18.2796 Y3.7973 
G01 X18.0924 Y3.6613 
G01 X17.9287 Y3.4976 
G01 X17.7927 Y3.3104 
G01 X17.6877 Y3.1043 
G01 X17.6162 Y2.8842 
G01 X17.5800 Y2.6557 
G01 X17.5800 Y2.4243 
G01 X17.6162 Y2.1958 
G01 X17.6877 Y1.9757 
G01 X17.7927 Y1.7696 
G01 X17.9287 Y1.5824 
G01 X18.0811 Y1.4300 
G01 X18.2448 Y1.2663 
G01 X18.4320 Y1.1303 
G01 X18.6381 Y1.0253 
G01 X18.8582 Y0.9538 
G01 X19.0867 Y0.9176 
G01 X29.3257 Y0.9176 
G01 X29.5542 Y0.9538 
G01 X29.7743 Y1.0253 
G01 X29.9804 Y1.1303 
G01 X30.1676 Y1.2663 
G01 X30.3313 Y1.4300 
G01 X30.4673 Y1.6172 
G01 X30.5723 Y1.8233 
G01 X30.6438 Y2.0434 
G01 X30.6800 Y2.2719 
G01 X30.6800 Y2.5033 
G01 X30.6438 Y2.7318 
G01 X30.5723 Y2.9519 
G01 X30.4673 Y3.1580 
G01 X30.3313 Y3.3452 
G01 X30.1676 Y3.5089 
G01 X29.9804 Y3.6449 
G01 X29.7743 Y3.7499 
G01 X29.5542 Y3.8214 
G01 X29.3257 Y3.8576 
G01 X19.7020 Y3.8576 
G01 X19.6143 Y3.9023 
G00 Z2.5400 
G00 X40.4400 Y2.4243 
G01 Z-0.1778 F254.00 
G01 X40.4762 Y2.1958 F508.00 
G01 X40.5477 Y1.9757 
G01 X40.6527 Y1.7696 
G01 X40.7887 Y1.5824 
G01 X40.9524 Y1.4187 
G01 X41.1395 Y1.2827 
G01 X41.3457 Y1.1777 
G01 X41.5658 Y1.1062 
G01 X41.7943 Y1.0700 
G01 X42.0257 Y1.0700 
G01 X42.2542 Y1.1062 
G01 X42.4743 Y1.1777 
G01 X42.6804 Y1.2827 
G01 X42.8676 Y1.4187 
G01 X43.0313 Y1.5824 
G01 X43.1673 Y1.7696 
G01 X43.2723 Y1.9757 
G01 X43.3438 Y2.1958 
G01 X43.3800 Y2.4243 
G01 X43.3800 Y4.4711 
G01 X45.5712 Y6.6624 
G01 X45.7073 Y6.8496 
G01 X45.8123 Y7.0557 
G01 X45.8838 Y7.2758 
G01 X45.9200 Y7.5043 
G01 X45.9200 Y12.8157 
G01 X45.8838 Y13.0442 
G01 X45.8123 Y13.2643 
G01 X45.7073 Y13.4704 
G01 X45.5712 Y13.6576 
G01 X45.4076 Y13.8213 
G01 X44.1376 Y15.0913 
G01 X43.9504 Y15.2273 
G01 X43.7443 Y15.3323 
G01 X43.5242 Y15.4038 
G01 X43.2957 Y15.4400 
G01 X43.0643 Y15.4400 
G01 X42.8358 Y15.4038 
G01 X42.6157 Y15.3323 
G01 X42.4096 Y15.2273 
G01 X42.2224 Y15.0913 
G01 X42.0587 Y14.9276 
G01 X41.9227 Y14.7404 
G01 X41.8177 Y14.5343 
G01 X41.7759 Y14.4057 
G01 X41.7571 Y14.3776 
G01 X41.6923 Y14.2210 
G01 X41.6592 Y14.0547 
G01 X41.6592 Y13.8853 
G01 X41.6923 Y13.7190 
G01 X41.7571 Y13.5624 
G01 X41.7759 Y13.5343 
G01 X41.8177 Y13.4057 
G01 X41.9227 Y13.1996 
G01 X42.0587 Y13.0124 
G01 X42.9800 Y12.0911 
G01 X42.9800 Y8.2289 
G01 X40.7887 Y6.0376 
G01 X40.6527 Y5.8504 
G01 X40.5477 Y5.6443 
G01 X40.4762 Y5.4242 
G01 X40.4400 Y5.1957 
G01 X40.4400 Y4.9643 
G01 X40.4400 Y2.4243 
G00 Z2.5400 
G00 X33.4660 Y9.0134 
G01 Z-0.1778 F254.00 
G01 X33.9413 Y9.8366 F508.00 
G01 X34.6134 Y10.5087 
G01 X35.4366 Y10.9840 
G01 X36.3547 Y11.2300 
G01 X37.3053 Y11.2300 
G01 X38.2234 Y10.9840 
G01 X39.0466 Y10.5087 
G01 X39.7187 Y9.8366 
G01 X40.1939 Y9.0135 
G01 X40.2127 Y8.9798 
G01 X40.2308 Y8.9485 
G01 X40.2556 Y8.9236 
G01 X40.2821 Y8.8970 
G01 X40.3127 Y8.8793 
G01 X40.3451 Y8.8606 
G01 X40.3799 Y8.8512 
G01 X40.4153 Y8.8417 
G01 X40.4516 Y8.8416 
G01 X40.4880 Y8.8416 
G01 X40.5234 Y8.8510 
G01 X40.5583 Y8.8604 
G01 X40.5900 Y8.8786 
G01 X40.6213 Y8.8967 
G01 X40.6460 Y8.9213 
G01 X40.6728 Y8.9481 
G01 X40.7848 Y9.0601 
G01 X40.7949 Y9.0775 
G01 X40.8212 Y9.1231 
G01 X40.8400 Y9.1934 
G01 X40.8400 Y11.1266 
G01 X40.8212 Y11.1969 
G01 X40.7848 Y11.2599 
G01 X40.7334 Y11.3113 
G01 X40.2913 Y11.7534 
G01 X39.8160 Y12.5766 
G01 X39.7972 Y12.6470 
G01 X39.7815 Y12.7054 
G01 X39.7783 Y12.7172 
G01 X39.7581 Y12.7522 
G01 X39.7420 Y12.7802 
G01 X39.7237 Y12.8119 
G01 X39.5192 Y13.5750 
G01 X39.5192 Y14.3650 
G01 X39.7237 Y15.1281 
G01 X39.7420 Y15.1598 
G01 X39.7574 Y15.1866 
G01 X39.7783 Y15.2228 
G01 X39.7811 Y15.2333 
G01 X39.7972 Y15.2930 
G01 X39.8160 Y15.3634 
G01 X40.2913 Y16.1866 
G01 X40.9634 Y16.8587 
G01 X41.7866 Y17.3340 
G01 X42.7047 Y17.5800 
G01 X43.6553 Y17.5800 
G01 X44.5734 Y17.3340 
G01 X45.3072 Y16.9103 
G01 X45.3774 Y16.8915 
G01 X45.4502 Y16.8915 
G01 X45.4532 Y16.8923 
G01 X45.5204 Y16.9103 
G01 X45.5820 Y16.9459 
G01 X45.6348 Y16.9981 
G01 X45.6712 Y17.0611 
G01 X45.6900 Y17.1313 
G01 X45.6900 Y19.1599 
G01 X45.6918 Y19.1689 
G01 X45.6900 Y19.1961 
G01 X45.6900 Y19.2234 
G01 X45.6876 Y19.2323 
G01 X45.6870 Y19.2414 
G01 X45.6782 Y19.2673 
G01 X45.6712 Y19.2937 
G01 X45.6666 Y19.3016 
G01 X45.6637 Y19.3103 
G01 X45.6485 Y19.3330 
G01 X45.6348 Y19.3567 
G01 X45.6283 Y19.3631 
G01 X45.6232 Y19.3708 
G01 X45.6027 Y19.3888 
G01 X45.5834 Y19.4081 
G01 X45.5755 Y19.4127 
G01 X45.5686 Y19.4187 
G01 X45.5441 Y19.4308 
G01 X45.5204 Y19.4444 
G01 X45.5116 Y19.4468 
G01 X45.5033 Y19.4509 
G01 X45.4765 Y19.4562 
G01 X45.4502 Y19.4633 
G01 X45.4410 Y19.4633 
G01 X45.0797 Y19.5351 
G01 X43.7293 Y20.0945 
G01 X42.5140 Y20.9065 
G01 X41.4805 Y21.9400 
G01 X40.6685 Y23.1553 
G01 X40.1091 Y24.5057 
G01 X39.8240 Y25.9392 
G01 X39.8240 Y27.4008 
G01 X40.1091 Y28.8343 
G01 X40.6685 Y30.1847 
G01 X41.4805 Y31.4000 
G01 X42.5140 Y32.4335 
G01 X43.7293 Y33.2455 
G01 X45.0797 Y33.8049 
G01 X45.4410 Y33.8767 
G01 X45.4502 Y33.8767 
G01 X45.4765 Y33.8838 
G01 X45.5033 Y33.8891 
G01 X45.5116 Y33.8932 
G01 X45.5204 Y33.8955 
G01 X45.5441 Y33.9092 
G01 X45.5686 Y33.9213 
G01 X45.5755 Y33.9273 
G01 X45.5834 Y33.9319 
G01 X45.6027 Y33.9512 
G01 X45.6232 Y33.9692 
G01 X45.6283 Y33.9769 
G01 X45.6348 Y33.9833 
G01 X45.6485 Y34.0070 
G01 X45.6637 Y34.0297 
G01 X45.6666 Y34.0384 
G01 X45.6712 Y34.0463 
G01 X45.6782 Y34.0727 
G01 X45.6870 Y34.0986 
G01 X45.6876 Y34.1077 
G01 X45.6900 Y34.1166 
G01 X45.6900 Y34.1439 
G01 X45.6918 Y34.1711 
G01 X45.6900 Y34.1801 
G01 X45.6900 Y40.7949 
G01 X45.7194 Y40.7995 
G01 X45.8976 Y40.8574 
G01 X46.0646 Y40.9425 
G01 X46.2162 Y41.0527 
G01 X46.3487 Y41.1852 
G01 X46.4589 Y41.3368 
G01 X46.5440 Y41.5038 
G01 X46.6019 Y41.6820 
G01 X46.6312 Y41.8671 
G01 X46.6312 Y42.0545 
G01 X46.6019 Y42.2396 
G01 X46.5440 Y42.4178 
G01 X46.4589 Y42.5848 
G01 X46.3487 Y42.7364 
G01 X46.2162 Y42.8689 
G01 X46.0646 Y42.9791 
G01 X45.8976 Y43.0642 
G01 X45.7194 Y43.1221 
G01 X45.5343 Y43.1514 
G01 X43.8444 Y43.1514 
G01 X43.1563 Y43.3358 
G01 X43.0899 Y43.3536 
G01 X43.0861 Y43.3546 
G01 X38.9201 Y43.3546 
G01 X38.0020 Y43.6006 
G01 X37.1788 Y44.0759 
G01 X36.5067 Y44.7480 
G01 X36.0314 Y45.5712 
G01 X35.7854 Y46.4893 
G01 X35.7854 Y47.4399 
G01 X36.0314 Y48.3580 
G01 X36.5067 Y49.1812 
G01 X37.1788 Y49.8533 
G01 X38.0020 Y50.3286 
G01 X38.9201 Y50.5746 
G01 X40.3702 Y50.5746 
G01 X40.4404 Y50.5934 
G01 X40.5034 Y50.6298 
G01 X40.5548 Y50.6812 
G01 X40.5912 Y50.7442 
G01 X40.6100 Y50.8144 
G01 X40.6100 Y59.7264 
G01 X40.5912 Y59.7966 
G01 X40.5548 Y59.8596 
G01 X40.5034 Y59.9110 
G01 X40.4404 Y59.9474 
G01 X40.3702 Y59.9662 
G01 X38.0636 Y59.9662 
G01 X37.9934 Y59.9474 
G01 X37.9304 Y59.9110 
G01 X37.8790 Y59.8596 
G01 X34.3752 Y56.3558 
G01 X34.3388 Y56.2928 
G01 X34.3200 Y56.2226 
G01 X34.3200 Y43.9445 
G01 X34.0583 Y42.9678 
G01 X33.5528 Y42.0922 
G01 X25.4852 Y34.0246 
G01 X25.4488 Y33.9616 
G01 X25.4300 Y33.8914 
G01 X25.4300 Y30.8786 
G01 X25.4348 Y30.8606 
G01 X25.4488 Y30.8084 
G01 X25.4852 Y30.7454 
G01 X25.5366 Y30.6940 
G01 X25.6654 Y30.5652 
G01 X25.7058 Y30.5418 
G01 X25.7284 Y30.5288 
G01 X25.7986 Y30.5100 
G01 X28.4455 Y30.5100 
G01 X29.4222 Y30.2483 
G01 X29.7071 Y30.0838 
G01 X29.7773 Y30.0650 
G01 X30.4010 Y29.8979 
G01 X31.1909 Y29.4418 
G01 X31.8358 Y28.7969 
G01 X32.2918 Y28.0070 
G01 X32.5279 Y27.1260 
G01 X32.5279 Y26.2140 
G01 X32.2918 Y25.3330 
G01 X31.8358 Y24.5431 
G01 X31.4472 Y24.1545 
G01 X31.4132 Y24.1205 
G01 X31.3958 Y24.1031 
G01 X31.3782 Y24.0726 
G01 X31.3594 Y24.0401 
G01 X31.3515 Y24.0104 
G01 X31.3406 Y23.9698 
G01 X31.3406 Y23.9339 
G01 X31.3406 Y23.8971 
G01 X31.3500 Y23.8620 
G01 X31.3594 Y23.8269 
G01 X31.3781 Y23.7945 
G01 X31.3958 Y23.7639 
G01 X31.4129 Y23.7468 
G01 X31.5336 Y23.5378 
G01 X31.5693 Y23.4759 
G01 X31.6213 Y23.4234 
G01 X31.8358 Y23.2089 
G01 X32.2918 Y22.4190 
G01 X32.5279 Y21.5380 
G01 X32.5279 Y20.6260 
G01 X32.2918 Y19.7450 
G01 X31.8358 Y18.9551 
G01 X31.6214 Y18.7406 
G01 X31.5707 Y18.6900 
G01 X31.5336 Y18.6262 
G01 X31.4129 Y18.4172 
G01 X30.6048 Y17.6091 
G01 X29.6152 Y17.0378 
G01 X28.5114 Y16.7420 
G01 X27.2505 Y16.7420 
G01 X27.1803 Y16.7232 
G01 X27.1173 Y16.6868 
G01 X27.0667 Y16.6362 
G01 X27.0295 Y16.5724 
G01 X27.0107 Y16.5022 
G01 X26.9042 Y16.1048 
G01 X26.3329 Y15.1152 
G01 X24.8898 Y13.6721 
G01 X23.9002 Y13.1008 
G01 X22.7964 Y12.8050 
G01 X21.7984 Y12.8050 
G01 X21.7281 Y12.7862 
G01 X21.6651 Y12.7498 
G01 X21.6137 Y12.6984 
G01 X21.2666 Y12.3513 
G01 X20.4434 Y11.8760 
G01 X19.5253 Y11.6300 
G01 X18.5747 Y11.6300 
G01 X17.6566 Y11.8760 
G01 X16.8334 Y12.3513 
G01 X13.3869 Y15.7978 
G01 X13.3239 Y15.8342 
G01 X13.2536 Y15.8530 
G01 X7.0486 Y15.8530 
G01 X6.2788 Y16.0593 
G01 X6.2116 Y16.0773 
G01 X6.2086 Y16.0781 
G01 X6.1358 Y16.0781 
G01 X6.1328 Y16.0773 
G01 X6.0656 Y16.0593 
G01 X6.0040 Y16.0237 
G01 X5.9512 Y15.9715 
G01 X5.9148 Y15.9085 
G01 X5.8960 Y15.8383 
G01 X5.8960 Y3.5958 
G01 X5.9148 Y3.5256 
G01 X5.9512 Y3.4626 
G01 X6.0026 Y3.4112 
G01 X6.0656 Y3.3748 
G01 X6.1358 Y3.3560 
G01 X15.3557 Y3.3560 
G01 X15.4260 Y3.3748 
G01 X15.4890 Y3.4112 
G01 X15.5404 Y3.4626 
G01 X15.5767 Y3.5256 
G01 X15.5778 Y3.5294 
G01 X15.6860 Y3.9334 
G01 X16.1613 Y4.7566 
G01 X16.8334 Y5.4287 
G01 X17.6566 Y5.9040 
G01 X18.5747 Y6.1500 
G01 X19.5253 Y6.1500 
G01 X20.0238 Y6.0164 
G01 X20.0904 Y5.9986 
G01 X20.0940 Y5.9976 
G01 X29.6853 Y5.9976 
G01 X30.6034 Y5.7516 
G01 X31.4266 Y5.2763 
G01 X32.0987 Y4.6042 
G01 X32.5740 Y3.7810 
G01 X32.6236 Y3.5958 
G01 X32.6424 Y3.5256 
G01 X32.6788 Y3.4626 
G01 X32.6956 Y3.4458 
G01 X32.7302 Y3.4112 
G01 X32.7641 Y3.3916 
G01 X32.7932 Y3.3748 
G01 X32.8634 Y3.3560 
G01 X32.9802 Y3.3560 
G01 X33.0504 Y3.3748 
G01 X33.1134 Y3.4112 
G01 X33.1648 Y3.4626 
G01 X33.2012 Y3.5256 
G01 X33.2200 Y3.5958 
G01 X33.2200 Y8.0953 
G01 X33.4660 Y9.0134 
G00 Z2.5400 
G00 X32.8758 Y62.5700 
G01 Z-0.1778 F254.00 
G01 X33.1642 Y62.5700 F508.00 
G01 X33.4501 Y62.6076 
G01 X33.7287 Y62.6823 
G01 X33.9951 Y62.7926 
G01 X34.2449 Y62.9368 
G01 X34.4737 Y63.1124 
G01 X41.0276 Y69.6663 
G01 X41.2032 Y69.8951 
G01 X41.3473 Y70.1449 
G01 X41.4577 Y70.4113 
G01 X41.5324 Y70.6899 
G01 X41.5700 Y70.9758 
G01 X41.5700 Y71.2642 
G01 X41.5324 Y71.5501 
G01 X41.4577 Y71.8287 
G01 X41.3473 Y72.0951 
G01 X41.2032 Y72.3449 
G01 X41.0276 Y72.5737 
G01 X40.8237 Y72.7776 
G01 X40.5949 Y72.9532 
G01 X40.3451 Y73.0974 
G01 X40.0787 Y73.2077 
G01 X39.8001 Y73.2824 
G01 X39.5142 Y73.3200 
G01 X39.2258 Y73.3200 
G01 X38.9399 Y73.2824 
G01 X38.6613 Y73.2077 
G01 X38.3949 Y73.0974 
G01 X38.1451 Y72.9532 
G01 X37.9163 Y72.7776 
G01 X32.1087 Y66.9700 
G01 X30.3358 Y66.9700 
G01 X30.0499 Y66.9324 
G01 X29.7713 Y66.8577 
G01 X29.5049 Y66.7473 
G01 X29.2551 Y66.6032 
G01 X29.0263 Y66.4276 
G01 X28.8224 Y66.2237 
G01 X28.6468 Y65.9949 
G01 X28.5026 Y65.7451 
G01 X28.3923 Y65.4787 
G01 X28.3176 Y65.2001 
G01 X28.2800 Y64.9142 
G01 X28.2800 Y64.6258 
G01 X28.3176 Y64.3399 
G01 X28.3923 Y64.0613 
G01 X28.5026 Y63.7949 
G01 X28.6468 Y63.5451 
G01 X28.7800 Y63.3716 
G01 X28.7800 Y45.1542 
G01 X20.3091 Y36.6833 
G01 X20.1735 Y36.5065 
G01 X20.0620 Y36.3135 
G01 X19.9768 Y36.1076 
G01 X19.9191 Y35.8924 
G01 X19.8900 Y35.6714 
G01 X19.8900 Y29.0986 
G01 X19.9191 Y28.8776 
G01 X19.9768 Y28.6624 
G01 X20.0620 Y28.4565 
G01 X20.1735 Y28.2635 
G01 X20.3091 Y28.0867 
G01 X20.4667 Y27.9291 
G01 X23.0067 Y25.3891 
G01 X23.1835 Y25.2535 
G01 X23.3765 Y25.1420 
G01 X23.5824 Y25.0568 
G01 X23.7976 Y24.9991 
G01 X24.0186 Y24.9700 
G01 X28.0514 Y24.9700 
G01 X28.2724 Y24.9991 
G01 X28.4876 Y25.0568 
G01 X28.6935 Y25.1420 
G01 X28.8865 Y25.2535 
G01 X29.0071 Y25.3461 
G01 X29.1681 Y25.3461 
G01 X29.3740 Y25.3787 
G01 X29.5722 Y25.4430 
G01 X29.7579 Y25.5377 
G01 X29.9264 Y25.6601 
G01 X30.0738 Y25.8075 
G01 X30.1963 Y25.9761 
G01 X30.2909 Y26.1618 
G01 X30.3553 Y26.3600 
G01 X30.3879 Y26.5658 
G01 X30.3879 Y26.7742 
G01 X30.3553 Y26.9800 
G01 X30.2909 Y27.1782 
G01 X30.1963 Y27.3639 
G01 X30.0738 Y27.5325 
G01 X29.9264 Y27.6799 
G01 X29.7579 Y27.8023 
G01 X29.5722 Y27.8970 
G01 X29.3740 Y27.9613 
G01 X29.1681 Y27.9939 
G01 X29.0071 Y27.9939 
G01 X28.8865 Y28.0865 
G01 X28.6935 Y28.1980 
G01 X28.4876 Y28.2832 
G01 X28.2724 Y28.3409 
G01 X28.0514 Y28.3700 
G01 X24.8342 Y28.3700 
G01 X23.2900 Y29.9142 
G01 X23.2900 Y34.8558 
G01 X31.7609 Y43.3267 
G01 X31.8965 Y43.5035 
G01 X32.0080 Y43.6965 
G01 X32.0932 Y43.9024 
G01 X32.1509 Y44.1176 
G01 X32.1800 Y44.3386 
G01 X32.1800 Y62.5700 
G01 X32.8758 Y62.5700 
G00 Z2.5400 
G00 X7.3873 Y61.2853 
G01 Z-0.1778 F254.00 
G01 X7.6659 Y61.2106 F508.00 
G01 X7.9518 Y61.1730 
G01 X16.6542 Y61.1730 
G01 X16.9401 Y61.2106 
G01 X17.2187 Y61.2853 
G01 X17.4851 Y61.3956 
G01 X17.7349 Y61.5398 
G01 X17.9637 Y61.7154 
G01 X18.1676 Y61.9193 
G01 X18.3432 Y62.1481 
G01 X18.4873 Y62.3979 
G01 X18.5977 Y62.6643 
G01 X18.6724 Y62.9429 
G01 X18.7100 Y63.2288 
G01 X18.7100 Y63.5172 
G01 X18.6724 Y63.8031 
G01 X18.5977 Y64.0817 
G01 X18.4873 Y64.3481 
G01 X18.3432 Y64.5979 
G01 X18.1676 Y64.8267 
G01 X17.9637 Y65.0306 
G01 X17.7349 Y65.2062 
G01 X17.4851 Y65.3504 
G01 X17.2187 Y65.4607 
G01 X16.9401 Y65.5354 
G01 X16.6542 Y65.5730 
G01 X8.5500 Y65.5730 
G01 X8.5500 Y71.2642 
G01 X8.5124 Y71.5501 
G01 X8.4377 Y71.8287 
G01 X8.3274 Y72.0951 
G01 X8.1832 Y72.3449 
G01 X8.0076 Y72.5737 
G01 X7.8037 Y72.7776 
G01 X7.5749 Y72.9532 
G01 X7.3251 Y73.0974 
G01 X7.0587 Y73.2077 
G01 X6.7801 Y73.2824 
G01 X6.4942 Y73.3200 
G01 X6.2058 Y73.3200 
G01 X5.9199 Y73.2824 
G01 X5.6413 Y73.2077 
G01 X5.3749 Y73.0974 
G01 X5.1251 Y72.9532 
G01 X4.8963 Y72.7776 
G01 X4.6924 Y72.5737 
G01 X4.5168 Y72.3449 
G01 X4.3726 Y72.0951 
G01 X4.2623 Y71.8287 
G01 X4.1876 Y71.5501 
G01 X4.1500 Y71.2642 
G01 X4.1500 Y63.2288 
G01 X4.1876 Y62.9429 
G01 X4.2623 Y62.6643 
G01 X4.3726 Y62.3979 
G01 X4.5168 Y62.1481 
G01 X4.6924 Y61.9193 
G01 X4.8963 Y61.7154 
G01 X5.1251 Y61.5398 
G01 X5.3749 Y61.3956 
G01 X5.6413 Y61.2853 
G01 X5.9199 Y61.2106 
G01 X6.2058 Y61.1730 
G01 X6.4942 Y61.1730 
G01 X6.7801 Y61.2106 
G01 X7.0587 Y61.2853 
G01 X7.2230 Y61.3533 
G01 X7.3873 Y61.2853 
G00 Z2.5400 
G00 X29.9264 Y20.0721 
G01 Z-0.1778 F254.00 
G01 X30.0738 Y20.2195 F508.00 
G01 X30.1963 Y20.3881 
G01 X30.2909 Y20.5738 
G01 X30.3553 Y20.7720 
G01 X30.3879 Y20.9778 
G01 X30.3879 Y21.1862 
G01 X30.3553 Y21.3920 
G01 X30.2909 Y21.5902 
G01 X30.1963 Y21.7759 
G01 X30.0738 Y21.9445 
G01 X29.9264 Y22.0919 
G01 X29.8762 Y22.1283 
G01 X29.7732 Y22.3069 
G01 X29.5976 Y22.5357 
G01 X29.3937 Y22.7396 
G01 X29.1649 Y22.9152 
G01 X28.9151 Y23.0594 
G01 X28.6487 Y23.1697 
G01 X28.3701 Y23.2444 
G01 X28.0842 Y23.2820 
G01 X21.7393 Y23.2820 
G01 X19.4376 Y25.5837 
G01 X19.2337 Y25.7876 
G01 X19.0049 Y25.9632 
G01 X18.7551 Y26.1074 
G01 X18.7100 Y26.1260 
G01 X18.7100 Y28.2112 
G01 X18.6724 Y28.4971 
G01 X18.5977 Y28.7757 
G01 X18.4873 Y29.0421 
G01 X18.3432 Y29.2919 
G01 X18.1676 Y29.5207 
G01 X17.9637 Y29.7246 
G01 X17.7349 Y29.9002 
G01 X17.4851 Y30.0444 
G01 X17.2187 Y30.1547 
G01 X16.9401 Y30.2294 
G01 X16.6542 Y30.2670 
G01 X6.2058 Y30.2670 
G01 X5.9199 Y30.2294 
G01 X5.6413 Y30.1547 
G01 X5.3749 Y30.0444 
G01 X5.1251 Y29.9002 
G01 X4.8963 Y29.7246 
G01 X4.6924 Y29.5207 
G01 X4.5168 Y29.2919 
G01 X4.3726 Y29.0421 
G01 X4.2623 Y28.7757 
G01 X4.1876 Y28.4971 
G01 X4.1500 Y28.2112 
G01 X4.1500 Y27.9228 
G01 X4.1876 Y27.6369 
G01 X4.2596 Y27.3685 
G01 X4.1876 Y27.1001 
G01 X4.1500 Y26.8142 
G01 X4.1500 Y21.3188 
G01 X4.1876 Y21.0329 
G01 X4.2623 Y20.7543 
G01 X4.3726 Y20.4879 
G01 X4.5168 Y20.2381 
G01 X4.6924 Y20.0093 
G01 X4.8963 Y19.8054 
G01 X5.9624 Y18.7393 
G01 X6.1663 Y18.5354 
G01 X6.3951 Y18.3598 
G01 X6.6449 Y18.2156 
G01 X6.9113 Y18.1053 
G01 X7.1899 Y18.0306 
G01 X7.4758 Y17.9930 
G01 X14.1142 Y17.9930 
G01 X14.2060 Y18.0051 
G01 X18.0924 Y14.1187 
G01 X18.2796 Y13.9827 
G01 X18.4857 Y13.8777 
G01 X18.7058 Y13.8062 
G01 X18.9343 Y13.7700 
G01 X19.1657 Y13.7700 
G01 X19.3942 Y13.8062 
G01 X19.6143 Y13.8777 
G01 X19.8204 Y13.9827 
G01 X20.0076 Y14.1187 
G01 X20.1713 Y14.2824 
G01 X20.3073 Y14.4695 
G01 X20.4123 Y14.6757 
G01 X20.4838 Y14.8958 
G01 X20.4987 Y14.9897 
G01 X20.5249 Y14.9826 
G01 X20.8108 Y14.9450 
G01 X22.3692 Y14.9450 
G01 X22.6551 Y14.9826 
G01 X22.9337 Y15.0573 
G01 X23.2001 Y15.1676 
G01 X23.4499 Y15.3118 
G01 X23.6787 Y15.4874 
G01 X24.5176 Y16.3263 
G01 X24.6932 Y16.5551 
G01 X24.8374 Y16.8049 
G01 X24.9477 Y17.0713 
G01 X25.0224 Y17.3499 
G01 X25.0600 Y17.6358 
G01 X25.0600 Y17.9242 
G01 X25.0224 Y18.2101 
G01 X24.9477 Y18.4887 
G01 X24.8374 Y18.7551 
G01 X24.7641 Y18.8820 
G01 X28.0842 Y18.8820 
G01 X28.3701 Y18.9196 
G01 X28.6487 Y18.9943 
G01 X28.9151 Y19.1046 
G01 X29.1649 Y19.2488 
G01 X29.3937 Y19.4244 
G01 X29.5976 Y19.6283 
G01 X29.7732 Y19.8571 
G01 X29.8762 Y20.0357 
G01 X29.9264 Y20.0721 
G00 Z2.5400 
G00 X35.3600 Y7.7357 
G01 Z-0.1778 F254.00 
G01 X35.3600 Y2.4243 F508.00 
G01 X35.3962 Y2.1958 
G01 X35.4677 Y1.9757 
G01 X35.5727 Y1.7696 
G01 X35.7087 Y1.5824 
G01 X35.8724 Y1.4187 
G01 X36.0596 Y1.2827 
G01 X36.2657 Y1.1777 
G01 X36.4858 Y1.1062 
G01 X36.7143 Y1.0700 
G01 X36.9457 Y1.0700 
G01 X37.1742 Y1.1062 
G01 X37.3943 Y1.1777 
G01 X37.6004 Y1.2827 
G01 X37.7876 Y1.4187 
G01 X37.9513 Y1.5824 
G01 X38.0873 Y1.7696 
G01 X38.1923 Y1.9757 
G01 X38.2638 Y2.1958 
G01 X38.3000 Y2.4243 
G01 X38.3000 Y7.7357 
G01 X38.2638 Y7.9642 
G01 X38.1923 Y8.1843 
G01 X38.0873 Y8.3904 
G01 X37.9513 Y8.5776 
G01 X37.7876 Y8.7413 
G01 X37.6004 Y8.8773 
G01 X37.3943 Y8.9823 
G01 X37.1742 Y9.0538 
G01 X36.9457 Y9.0900 
G01 X36.7143 Y9.0900 
G01 X36.4858 Y9.0538 
G01 X36.2657 Y8.9823 
G01 X36.0596 Y8.8773 
G01 X35.8724 Y8.7413 
G01 X35.7087 Y8.5776 
G01 X35.5727 Y8.3904 
G01 X35.4677 Y8.1843 
G01 X35.3962 Y7.9642 
G01 X35.3600 Y7.7357 
G00 Z2.5400 
G00 X7.0293 Y50.7450 
G01 Z-0.1778 F254.00 
G01 X6.7610 Y50.8062 F508.00 
G01 X6.4876 Y50.8370 
G01 X6.2124 Y50.8370 
G01 X5.9390 Y50.8062 
G01 X5.6707 Y50.7450 
G01 X5.4109 Y50.6541 
G01 X5.1630 Y50.5347 
G01 X4.9300 Y50.3883 
G01 X4.7149 Y50.2167 
G01 X4.5203 Y50.0221 
G01 X4.3487 Y49.8070 
G01 X4.2023 Y49.5740 
G01 X4.0829 Y49.3261 
G01 X3.9920 Y49.0663 
G01 X3.9308 Y48.7980 
G01 X3.9000 Y48.5246 
G01 X3.9000 Y43.0424 
G01 X3.9308 Y42.7690 
G01 X3.9920 Y42.5007 
G01 X4.0829 Y42.2409 
G01 X4.2023 Y41.9930 
G01 X4.3487 Y41.7600 
G01 X4.5203 Y41.5449 
G01 X4.7149 Y41.3503 
G01 X4.9300 Y41.1787 
G01 X5.1630 Y41.0323 
G01 X5.4109 Y40.9129 
G01 X5.6707 Y40.8220 
G01 X5.9390 Y40.7608 
G01 X6.2124 Y40.7300 
G01 X15.7308 Y40.7300 
G01 X15.8307 Y40.6950 
G01 X16.0990 Y40.6338 
G01 X16.3724 Y40.6030 
G01 X16.6476 Y40.6030 
G01 X16.9210 Y40.6338 
G01 X17.1893 Y40.6950 
G01 X17.4490 Y40.7859 
G01 X17.6970 Y40.9053 
G01 X17.9300 Y41.0517 
G01 X18.1451 Y41.2233 
G01 X18.3397 Y41.4179 
G01 X18.5113 Y41.6330 
G01 X18.6577 Y41.8660 
G01 X18.7771 Y42.1139 
G01 X18.8680 Y42.3737 
G01 X18.9292 Y42.6420 
G01 X18.9600 Y42.9154 
G01 X18.9600 Y48.5246 
G01 X18.9292 Y48.7980 
G01 X18.8680 Y49.0663 
G01 X18.7771 Y49.3261 
G01 X18.6577 Y49.5740 
G01 X18.5113 Y49.8070 
G01 X18.3397 Y50.0221 
G01 X18.1451 Y50.2167 
G01 X17.9300 Y50.3883 
G01 X17.6970 Y50.5347 
G01 X17.4490 Y50.6541 
G01 X17.1893 Y50.7450 
G01 X16.9210 Y50.8062 
G01 X16.6476 Y50.8370 
G01 X16.3724 Y50.8370 
G01 X16.0990 Y50.8062 
G01 X15.8307 Y50.7450 
G01 X15.7308 Y50.7100 
G01 X7.1292 Y50.7100 
G01 X7.0293 Y50.7450 
G00 Z2.5400 
G00 X50.5125 Y48.4592 
G01 Z-0.1778 F254.00 
G01 X50.3097 Y48.6148 F508.00 
G01 X50.0883 Y48.7427 
G01 X49.8522 Y48.8405 
G01 X49.6052 Y48.9066 
G01 X49.3518 Y48.9400 
G01 X47.4400 Y48.9400 
G01 X47.4400 Y63.8491 
G01 X47.4727 Y63.9057 
G01 X47.5705 Y64.1418 
G01 X47.6366 Y64.3888 
G01 X47.6700 Y64.6422 
G01 X47.6700 Y64.8978 
G01 X47.6366 Y65.1512 
G01 X47.5705 Y65.3982 
G01 X47.4727 Y65.6343 
G01 X47.3448 Y65.8557 
G01 X47.1892 Y66.0585 
G01 X47.0085 Y66.2392 
G01 X46.8057 Y66.3948 
G01 X46.5843 Y66.5227 
G01 X46.3482 Y66.6205 
G01 X46.1012 Y66.6866 
G01 X45.8478 Y66.7200 
G01 X45.5922 Y66.7200 
G01 X45.3388 Y66.6866 
G01 X45.0918 Y66.6205 
G01 X44.8557 Y66.5227 
G01 X44.6343 Y66.3948 
G01 X44.4315 Y66.2392 
G01 X42.9808 Y64.7885 
G01 X42.8252 Y64.5857 
G01 X42.6973 Y64.3643 
G01 X42.5995 Y64.1282 
G01 X42.5334 Y63.8812 
G01 X42.5000 Y63.6278 
G01 X42.5000 Y48.6846 
G01 X39.2827 Y48.6846 
G01 X39.0591 Y48.6552 
G01 X38.8413 Y48.5968 
G01 X38.6330 Y48.5105 
G01 X38.4378 Y48.3978 
G01 X38.2589 Y48.2605 
G01 X38.0995 Y48.1011 
G01 X37.9622 Y47.9222 
G01 X37.8495 Y47.7270 
G01 X37.7632 Y47.5187 
G01 X37.7048 Y47.3009 
G01 X37.6754 Y47.0773 
G01 X37.6754 Y46.8519 
G01 X37.7048 Y46.6283 
G01 X37.7632 Y46.4105 
G01 X37.8495 Y46.2022 
G01 X37.9622 Y46.0070 
G01 X38.0995 Y45.8281 
G01 X38.2589 Y45.6687 
G01 X38.4378 Y45.5314 
G01 X38.6330 Y45.4187 
G01 X38.8413 Y45.3324 
G01 X39.0591 Y45.2740 
G01 X39.2827 Y45.2446 
G01 X43.5291 Y45.2446 
G01 X43.5857 Y45.2119 
G01 X43.8218 Y45.1141 
G01 X44.0688 Y45.0480 
G01 X44.3222 Y45.0146 
G01 X44.5778 Y45.0146 
G01 X44.7707 Y45.0400 
G01 X47.5800 Y45.0400 
G01 X47.5800 Y1.1422 
G01 X47.6134 Y0.8888 
G01 X47.6795 Y0.6418 
G01 X47.7773 Y0.4057 
G01 X47.9052 Y0.1843 
G01 X48.0608 Y-0.0185 
G01 X48.2415 Y-0.1992 
G01 X48.4443 Y-0.3548 
G01 X48.6657 Y-0.4827 
G01 X48.9018 Y-0.5805 
G01 X49.1488 Y-0.6466 
G01 X49.4022 Y-0.6800 
G01 X49.6578 Y-0.6800 
G01 X49.9112 Y-0.6466 
G01 X50.1581 Y-0.5805 
G01 X50.3943 Y-0.4827 
G01 X50.6157 Y-0.3548 
G01 X50.8185 Y-0.1992 
G01 X50.9992 Y-0.0185 
G01 X51.1548 Y0.1843 
G01 X51.2827 Y0.4057 
G01 X51.3805 Y0.6418 
G01 X51.4466 Y0.8888 
G01 X51.4800 Y1.1422 
G01 X51.4800 Y46.8118 
G01 X51.4466 Y47.0652 
G01 X51.3805 Y47.3122 
G01 X51.2827 Y47.5483 
G01 X51.1548 Y47.7697 
G01 X50.9992 Y47.9725 
G01 X50.8185 Y48.1532 
G01 X50.5125 Y48.4592 
G00 Z2.5400 
G00 X7.4167 Y61.0150 
G01 Z-0.1778 F254.00 
G01 X7.6850 Y60.9538 F508.00 
G01 X7.9584 Y60.9230 
G01 X16.6476 Y60.9230 
G01 X16.9210 Y60.9538 
G01 X17.1893 Y61.0150 
G01 X17.4490 Y61.1059 
G01 X17.6970 Y61.2253 
G01 X17.9300 Y61.3717 
G01 X18.1451 Y61.5433 
G01 X18.3397 Y61.7379 
G01 X18.5113 Y61.9530 
G01 X18.6577 Y62.1860 
G01 X18.7771 Y62.4339 
G01 X18.8680 Y62.6937 
G01 X18.9292 Y62.9620 
G01 X18.9600 Y63.2354 
G01 X18.9600 Y63.5106 
G01 X18.9292 Y63.7840 
G01 X18.8680 Y64.0523 
G01 X18.7771 Y64.3120 
G01 X18.6577 Y64.5600 
G01 X18.5113 Y64.7930 
G01 X18.3397 Y65.0081 
G01 X18.1451 Y65.2027 
G01 X17.9300 Y65.3743 
G01 X17.6970 Y65.5207 
G01 X17.4490 Y65.6401 
G01 X17.1893 Y65.7310 
G01 X16.9210 Y65.7922 
G01 X16.6476 Y65.8230 
G01 X8.8000 Y65.8230 
G01 X8.8000 Y71.2576 
G01 X8.7692 Y71.5310 
G01 X8.7080 Y71.7993 
G01 X8.6171 Y72.0590 
G01 X8.4977 Y72.3070 
G01 X8.3513 Y72.5400 
G01 X8.1797 Y72.7551 
G01 X7.9851 Y72.9497 
G01 X7.7700 Y73.1213 
G01 X7.5370 Y73.2677 
G01 X7.2891 Y73.3871 
G01 X7.0293 Y73.4780 
G01 X6.7610 Y73.5392 
G01 X6.4876 Y73.5700 
G01 X6.2124 Y73.5700 
G01 X5.9390 Y73.5392 
G01 X5.6707 Y73.4780 
G01 X5.4109 Y73.3871 
G01 X5.1630 Y73.2677 
G01 X4.9300 Y73.1213 
G01 X4.7149 Y72.9497 
G01 X4.5203 Y72.7551 
G01 X4.3487 Y72.5400 
G01 X4.2023 Y72.3070 
G01 X4.0829 Y72.0590 
G01 X3.9920 Y71.7993 
G01 X3.9308 Y71.5310 
G01 X3.9000 Y71.2576 
G01 X3.9000 Y63.2354 
G01 X3.9308 Y62.9620 
G01 X3.9920 Y62.6937 
G01 X4.0829 Y62.4339 
G01 X4.2023 Y62.1860 
G01 X4.3487 Y61.9530 
G01 X4.5203 Y61.7379 
G01 X4.7149 Y61.5433 
G01 X4.9300 Y61.3717 
G01 X5.1630 Y61.2253 
G01 X5.4109 Y61.1059 
G01 X5.6707 Y61.0150 
G01 X5.9390 Y60.9538 
G01 X6.2124 Y60.9230 
G01 X6.4876 Y60.9230 
G01 X6.7610 Y60.9538 
G01 X7.0293 Y61.0150 
G01 X7.2230 Y61.0828 
G01 X7.4167 Y61.0150 
G00 Z2.5400 
G00 X32.8824 Y62.3200 
G01 Z-0.1778 F254.00 
G01 X33.1576 Y62.3200 F508.00 
G01 X33.4310 Y62.3508 
G01 X33.6993 Y62.4120 
G01 X33.9591 Y62.5029 
G01 X34.2070 Y62.6223 
G01 X34.4400 Y62.7687 
G01 X34.6551 Y62.9403 
G01 X41.1997 Y69.4849 
G01 X41.3713 Y69.7000 
G01 X41.5177 Y69.9330 
G01 X41.6371 Y70.1809 
G01 X41.7280 Y70.4407 
G01 X41.7892 Y70.7090 
G01 X41.8200 Y70.9824 
G01 X41.8200 Y71.2576 
G01 X41.7892 Y71.5310 
G01 X41.7280 Y71.7993 
G01 X41.6371 Y72.0590 
G01 X41.5177 Y72.3070 
G01 X41.3713 Y72.5400 
G01 X41.1997 Y72.7551 
G01 X41.0051 Y72.9497 
G01 X40.7900 Y73.1213 
G01 X40.5570 Y73.2677 
G01 X40.3090 Y73.3871 
G01 X40.0493 Y73.4780 
G01 X39.7810 Y73.5392 
G01 X39.5076 Y73.5700 
G01 X39.2324 Y73.5700 
G01 X38.9590 Y73.5392 
G01 X38.6907 Y73.4780 
G01 X38.4309 Y73.3871 
G01 X38.1830 Y73.2677 
G01 X37.9500 Y73.1213 
G01 X37.7349 Y72.9497 
G01 X32.0052 Y67.2200 
G01 X30.3424 Y67.2200 
G01 X30.0690 Y67.1892 
G01 X29.8007 Y67.1280 
G01 X29.5409 Y67.0371 
G01 X29.2930 Y66.9177 
G01 X29.0600 Y66.7713 
G01 X28.8449 Y66.5997 
G01 X28.6503 Y66.4051 
G01 X28.4787 Y66.1900 
G01 X28.3323 Y65.9570 
G01 X28.2129 Y65.7091 
G01 X28.1220 Y65.4493 
G01 X28.0608 Y65.1810 
G01 X28.0300 Y64.9076 
G01 X28.0300 Y64.6324 
G01 X28.0608 Y64.3590 
G01 X28.1220 Y64.0907 
G01 X28.2129 Y63.8309 
G01 X28.3323 Y63.5830 
G01 X28.4787 Y63.3500 
G01 X28.5300 Y63.2857 
G01 X28.5300 Y45.2577 
G01 X20.1208 Y36.8485 
G01 X19.9652 Y36.6457 
G01 X19.8373 Y36.4243 
G01 X19.7395 Y36.1882 
G01 X19.6734 Y35.9412 
G01 X19.6400 Y35.6878 
G01 X19.6400 Y29.0822 
G01 X19.6734 Y28.8288 
G01 X19.7395 Y28.5818 
G01 X19.8373 Y28.3457 
G01 X19.9652 Y28.1243 
G01 X20.1208 Y27.9215 
G01 X20.3015 Y27.7408 
G01 X22.8415 Y25.2008 
G01 X23.0443 Y25.0452 
G01 X23.2657 Y24.9173 
G01 X23.5018 Y24.8195 
G01 X23.7488 Y24.7534 
G01 X24.0022 Y24.7200 
G01 X28.0678 Y24.7200 
G01 X28.3212 Y24.7534 
G01 X28.5682 Y24.8195 
G01 X28.8043 Y24.9173 
G01 X29.0257 Y25.0452 
G01 X29.0920 Y25.0961 
G01 X29.1878 Y25.0961 
G01 X29.4325 Y25.1348 
G01 X29.6681 Y25.2114 
G01 X29.8889 Y25.3238 
G01 X30.0893 Y25.4695 
G01 X30.2645 Y25.6446 
G01 X30.4101 Y25.8451 
G01 X30.5226 Y26.0658 
G01 X30.5991 Y26.3014 
G01 X30.6379 Y26.5461 
G01 X30.6379 Y26.7939 
G01 X30.5991 Y27.0386 
G01 X30.5226 Y27.2742 
G01 X30.4101 Y27.4949 
G01 X30.2645 Y27.6954 
G01 X30.0893 Y27.8705 
G01 X29.8889 Y28.0162 
G01 X29.6681 Y28.1286 
G01 X29.4325 Y28.2052 
G01 X29.1878 Y28.2439 
G01 X29.0920 Y28.2439 
G01 X29.0257 Y28.2948 
G01 X28.8043 Y28.4227 
G01 X28.5682 Y28.5205 
G01 X28.3212 Y28.5866 
G01 X28.0678 Y28.6200 
G01 X24.9377 Y28.6200 
G01 X23.5400 Y30.0177 
G01 X23.5400 Y34.7523 
G01 X31.9492 Y43.1615 
G01 X32.1048 Y43.3643 
G01 X32.2327 Y43.5857 
G01 X32.3305 Y43.8218 
G01 X32.3966 Y44.0688 
G01 X32.4300 Y44.3222 
G01 X32.4300 Y62.3200 
G01 X32.8824 Y62.3200 
G00 Z2.5400 
G00 X33.6990 Y8.9169 
G01 Z-0.1778 F254.00 
G01 X34.1413 Y9.6831 F508.00 
G01 X34.7669 Y10.3087 
G01 X35.5331 Y10.7510 
G01 X36.3876 Y10.9800 
G01 X37.2724 Y10.9800 
G01 X38.1269 Y10.7510 
G01 X38.8931 Y10.3087 
G01 X39.5187 Y9.6831 
G01 X39.9609 Y8.9171 
G01 X39.9954 Y8.8562 
G01 X40.0306 Y8.7951 
G01 X40.0778 Y8.7478 
G01 X40.1285 Y8.6971 
G01 X40.1874 Y8.6630 
G01 X40.2484 Y8.6277 
G01 X40.3153 Y8.6097 
G01 X40.3822 Y8.5917 
G01 X40.4531 Y8.5916 
G01 X40.5207 Y8.5916 
G01 X40.5892 Y8.6099 
G01 X40.6546 Y8.6273 
G01 X40.7136 Y8.6613 
G01 X40.7746 Y8.6965 
G01 X40.8216 Y8.7433 
G01 X40.8727 Y8.7944 
G01 X40.8869 Y8.8087 
G01 X40.9849 Y8.9066 
G01 X41.0541 Y9.0266 
G01 X41.0712 Y9.0903 
G01 X41.0900 Y9.1604 
G01 X41.0900 Y11.1596 
G01 X41.0541 Y11.2934 
G01 X40.9849 Y11.4134 
G01 X40.8869 Y11.5113 
G01 X40.4913 Y11.9069 
G01 X40.0490 Y12.6731 
G01 X40.0472 Y12.6799 
G01 X40.0192 Y12.7843 
G01 X40.0113 Y12.8137 
G01 X39.9588 Y12.9046 
G01 X39.9566 Y12.9084 
G01 X39.7692 Y13.6079 
G01 X39.7692 Y14.3321 
G01 X39.9566 Y15.0316 
G01 X40.0113 Y15.1263 
G01 X40.0187 Y15.1540 
G01 X40.0472 Y15.2601 
G01 X40.0490 Y15.2669 
G01 X40.4913 Y16.0331 
G01 X41.1169 Y16.6587 
G01 X41.8831 Y17.1010 
G01 X42.7376 Y17.3300 
G01 X43.6223 Y17.3300 
G01 X44.4769 Y17.1010 
G01 X45.0907 Y16.7466 
G01 X45.1000 Y16.7413 
G01 X45.2107 Y16.6774 
G01 X45.3445 Y16.6415 
G01 X45.4831 Y16.6415 
G01 X45.6169 Y16.6774 
G01 X45.6195 Y16.6789 
G01 X45.7369 Y16.7466 
G01 X45.8333 Y16.8431 
G01 X45.9041 Y16.9646 
G01 X45.9400 Y17.0984 
G01 X45.9400 Y19.1352 
G01 X45.9434 Y19.1524 
G01 X45.9400 Y19.2043 
G01 X45.9400 Y19.2563 
G01 X45.9355 Y19.2732 
G01 X45.9343 Y19.2906 
G01 X45.9176 Y19.3399 
G01 X45.9041 Y19.3902 
G01 X45.8954 Y19.4053 
G01 X45.8898 Y19.4218 
G01 X45.8609 Y19.4651 
G01 X45.8349 Y19.5102 
G01 X45.8225 Y19.5225 
G01 X45.8128 Y19.5370 
G01 X45.7737 Y19.5713 
G01 X45.7369 Y19.6081 
G01 X45.7218 Y19.6169 
G01 X45.7087 Y19.6284 
G01 X45.6620 Y19.6514 
G01 X45.6169 Y19.6774 
G01 X45.6000 Y19.6819 
G01 X45.5844 Y19.6896 
G01 X45.5334 Y19.6998 
G01 X45.4831 Y19.7133 
G01 X45.4656 Y19.7133 
G01 X45.1526 Y19.7755 
G01 X43.8477 Y20.3160 
G01 X42.6734 Y21.1007 
G01 X41.6747 Y22.0994 
G01 X40.8900 Y23.2737 
G01 X40.3495 Y24.5786 
G01 X40.0740 Y25.9638 
G01 X40.0740 Y27.3762 
G01 X40.3495 Y28.7614 
G01 X40.8900 Y30.0663 
G01 X41.6747 Y31.2406 
G01 X42.6734 Y32.2393 
G01 X43.8477 Y33.0240 
G01 X45.1526 Y33.5645 
G01 X45.4656 Y33.6267 
G01 X45.4831 Y33.6267 
G01 X45.5333 Y33.6402 
G01 X45.5844 Y33.6504 
G01 X45.6000 Y33.6581 
G01 X45.6169 Y33.6626 
G01 X45.6620 Y33.6886 
G01 X45.7087 Y33.7116 
G01 X45.7218 Y33.7231 
G01 X45.7369 Y33.7319 
G01 X45.7737 Y33.7687 
G01 X45.8128 Y33.8030 
G01 X45.8225 Y33.8175 
G01 X45.8349 Y33.8298 
G01 X45.8609 Y33.8749 
G01 X45.8898 Y33.9182 
G01 X45.8954 Y33.9347 
G01 X45.9041 Y33.9498 
G01 X45.9176 Y34.0001 
G01 X45.9343 Y34.0494 
G01 X45.9355 Y34.0668 
G01 X45.9400 Y34.0836 
G01 X45.9400 Y34.1357 
G01 X45.9434 Y34.1876 
G01 X45.9400 Y34.2047 
G01 X45.9400 Y40.6083 
G01 X45.9936 Y40.6257 
G01 X46.1956 Y40.7287 
G01 X46.3791 Y40.8620 
G01 X46.5394 Y41.0223 
G01 X46.6727 Y41.2058 
G01 X46.7757 Y41.4078 
G01 X46.8457 Y41.6235 
G01 X46.8812 Y41.8474 
G01 X46.8812 Y42.0742 
G01 X46.8457 Y42.2981 
G01 X46.7757 Y42.5138 
G01 X46.6727 Y42.7158 
G01 X46.5394 Y42.8993 
G01 X46.3791 Y43.0596 
G01 X46.1956 Y43.1929 
G01 X45.9936 Y43.2959 
G01 X45.7779 Y43.3659 
G01 X45.5540 Y43.4014 
G01 X43.8773 Y43.4014 
G01 X43.1190 Y43.6046 
G01 X38.9530 Y43.6046 
G01 X38.0985 Y43.8336 
G01 X37.3323 Y44.2759 
G01 X36.7067 Y44.9015 
G01 X36.2644 Y45.6677 
G01 X36.0354 Y46.5222 
G01 X36.0354 Y47.4070 
G01 X36.2644 Y48.2615 
G01 X36.7067 Y49.0277 
G01 X37.3323 Y49.6533 
G01 X38.0985 Y50.0956 
G01 X38.9530 Y50.3246 
G01 X40.4031 Y50.3246 
G01 X40.5369 Y50.3605 
G01 X40.6569 Y50.4297 
G01 X40.7549 Y50.5277 
G01 X40.8241 Y50.6477 
G01 X40.8600 Y50.7815 
G01 X40.8600 Y59.7593 
G01 X40.8241 Y59.8931 
G01 X40.7549 Y60.0131 
G01 X40.6569 Y60.1111 
G01 X40.5369 Y60.1803 
G01 X40.4031 Y60.2162 
G01 X38.0307 Y60.2162 
G01 X37.8969 Y60.1803 
G01 X37.7769 Y60.1111 
G01 X37.6789 Y60.0131 
G01 X34.1751 Y56.5093 
G01 X34.1059 Y56.3893 
G01 X34.0700 Y56.2555 
G01 X34.0700 Y43.9774 
G01 X33.8253 Y43.0643 
G01 X33.3527 Y42.2457 
G01 X25.2851 Y34.1781 
G01 X25.2159 Y34.0581 
G01 X25.1800 Y33.9243 
G01 X25.1800 Y30.8457 
G01 X25.1988 Y30.7755 
G01 X25.2159 Y30.7119 
G01 X25.2329 Y30.6824 
G01 X25.2851 Y30.5919 
G01 X25.3831 Y30.4939 
G01 X25.4139 Y30.4631 
G01 X25.5119 Y30.3651 
G01 X25.5414 Y30.3481 
G01 X25.6319 Y30.2959 
G01 X25.7104 Y30.2748 
G01 X25.7657 Y30.2600 
G01 X28.4126 Y30.2600 
G01 X29.3257 Y30.0153 
G01 X29.6106 Y29.8508 
G01 X29.7444 Y29.8150 
G01 X30.3045 Y29.6649 
G01 X31.0374 Y29.2418 
G01 X31.6357 Y28.6434 
G01 X32.0589 Y27.9105 
G01 X32.2779 Y27.0931 
G01 X32.2779 Y26.2469 
G01 X32.0589 Y25.4295 
G01 X31.6357 Y24.6966 
G01 X31.2937 Y24.3545 
G01 X31.2613 Y24.3221 
G01 X31.1957 Y24.2566 
G01 X31.1670 Y24.2068 
G01 X31.1265 Y24.1366 
G01 X31.1077 Y24.0664 
G01 X31.0906 Y24.0028 
G01 X31.0906 Y23.9338 
G01 X31.0906 Y23.8642 
G01 X31.1086 Y23.7970 
G01 X31.1265 Y23.7304 
G01 X31.1585 Y23.6749 
G01 X31.1957 Y23.6104 
G01 X31.2128 Y23.5933 
G01 X31.3006 Y23.4413 
G01 X31.3699 Y23.3213 
G01 X31.4663 Y23.2248 
G01 X31.6357 Y23.0554 
G01 X32.0589 Y22.3225 
G01 X32.2779 Y21.5051 
G01 X32.2779 Y20.6589 
G01 X32.0589 Y19.8415 
G01 X31.6357 Y19.1086 
G01 X31.3699 Y18.8427 
G01 X31.3006 Y18.7227 
G01 X31.2128 Y18.5707 
G01 X30.4513 Y17.8092 
G01 X29.5187 Y17.2707 
G01 X28.4785 Y16.9920 
G01 X27.2176 Y16.9920 
G01 X27.0838 Y16.9561 
G01 X27.0408 Y16.9313 
G01 X26.9638 Y16.8869 
G01 X26.8658 Y16.7889 
G01 X26.7966 Y16.6689 
G01 X26.7607 Y16.5351 
G01 X26.6713 Y16.2013 
G01 X26.1328 Y15.2687 
G01 X24.7363 Y13.8722 
G01 X23.8037 Y13.3337 
G01 X22.7635 Y13.0550 
G01 X21.7654 Y13.0550 
G01 X21.6316 Y13.0191 
G01 X21.5116 Y12.9499 
G01 X21.4137 Y12.8519 
G01 X21.1131 Y12.5513 
G01 X20.3469 Y12.1090 
G01 X19.4924 Y11.8800 
G01 X18.6076 Y11.8800 
G01 X17.7531 Y12.1090 
G01 X16.9869 Y12.5513 
G01 X13.5404 Y15.9979 
G01 X13.4204 Y16.0671 
G01 X13.2866 Y16.1030 
G01 X7.0815 Y16.1030 
G01 X6.2415 Y16.3281 
G01 X6.1029 Y16.3281 
G01 X5.9691 Y16.2922 
G01 X5.9665 Y16.2907 
G01 X5.8491 Y16.2230 
G01 X5.7527 Y16.1265 
G01 X5.6819 Y16.0050 
G01 X5.6460 Y15.8712 
G01 X5.6460 Y3.5629 
G01 X5.6819 Y3.4291 
G01 X5.7511 Y3.3091 
G01 X5.8491 Y3.2111 
G01 X5.9691 Y3.1419 
G01 X6.1029 Y3.1060 
G01 X15.3886 Y3.1060 
G01 X15.5225 Y3.1419 
G01 X15.6425 Y3.2111 
G01 X15.7404 Y3.3091 
G01 X15.7420 Y3.3117 
G01 X15.8097 Y3.4291 
G01 X15.9190 Y3.8369 
G01 X16.3613 Y4.6031 
G01 X16.9869 Y5.2287 
G01 X17.7531 Y5.6710 
G01 X18.6076 Y5.9000 
G01 X19.4924 Y5.9000 
G01 X20.0611 Y5.7476 
G01 X29.6524 Y5.7476 
G01 X30.5069 Y5.5186 
G01 X31.2731 Y5.0763 
G01 X31.8987 Y4.4507 
G01 X32.3410 Y3.6845 
G01 X32.3736 Y3.5629 
G01 X32.4095 Y3.4291 
G01 X32.4679 Y3.3278 
G01 X32.4787 Y3.3091 
G01 X32.5767 Y3.2111 
G01 X32.6731 Y3.1555 
G01 X32.6967 Y3.1419 
G01 X32.8305 Y3.1060 
G01 X33.0131 Y3.1060 
G01 X33.1469 Y3.1419 
G01 X33.2669 Y3.2111 
G01 X33.3649 Y3.3091 
G01 X33.4341 Y3.4291 
G01 X33.4700 Y3.5629 
G01 X33.4700 Y8.0624 
G01 X33.6990 Y8.9169 
G00 Z2.5400 
G00 X40.1900 Y2.4273 
G01 Z-0.1778 F254.00 
G01 X40.2194 Y2.2037 F508.00 
G01 X40.2778 Y1.9859 
G01 X40.3641 Y1.7776 
G01 X40.4768 Y1.5824 
G01 X40.6141 Y1.4035 
G01 X40.7735 Y1.2441 
G01 X40.9524 Y1.1068 
G01 X41.1476 Y0.9941 
G01 X41.3559 Y0.9078 
G01 X41.5737 Y0.8494 
G01 X41.7973 Y0.8200 
G01 X42.0227 Y0.8200 
G01 X42.2463 Y0.8494 
G01 X42.4641 Y0.9078 
G01 X42.6724 Y0.9941 
G01 X42.8676 Y1.1068 
G01 X43.0465 Y1.2441 
G01 X43.2059 Y1.4035 
G01 X43.3432 Y1.5824 
G01 X43.4559 Y1.7776 
G01 X43.5422 Y1.9859 
G01 X43.6006 Y2.2037 
G01 X43.6300 Y2.4273 
G01 X43.6300 Y4.3676 
G01 X45.7459 Y6.4835 
G01 X45.8832 Y6.6624 
G01 X45.9959 Y6.8576 
G01 X46.0822 Y7.0659 
G01 X46.1406 Y7.2837 
G01 X46.1700 Y7.5073 
G01 X46.1700 Y12.8127 
G01 X46.1406 Y13.0363 
G01 X46.0822 Y13.2541 
G01 X45.9959 Y13.4624 
G01 X45.8832 Y13.6576 
G01 X45.7459 Y13.8365 
G01 X45.5865 Y13.9959 
G01 X44.3165 Y15.2659 
G01 X44.1376 Y15.4032 
G01 X43.9424 Y15.5159 
G01 X43.7341 Y15.6022 
G01 X43.5163 Y15.6606 
G01 X43.2927 Y15.6900 
G01 X43.0673 Y15.6900 
G01 X42.8437 Y15.6606 
G01 X42.6259 Y15.6022 
G01 X42.4176 Y15.5159 
G01 X42.2224 Y15.4032 
G01 X42.0435 Y15.2659 
G01 X41.8841 Y15.1065 
G01 X41.7468 Y14.9276 
G01 X41.6341 Y14.7324 
G01 X41.5478 Y14.5241 
G01 X41.5390 Y14.4914 
G01 X41.4906 Y14.3962 
G01 X41.4365 Y14.2300 
G01 X41.4092 Y14.0574 
G01 X41.4092 Y13.8826 
G01 X41.4365 Y13.7100 
G01 X41.4906 Y13.5438 
G01 X41.5390 Y13.4486 
G01 X41.5478 Y13.4159 
G01 X41.6341 Y13.2076 
G01 X41.7468 Y13.0124 
G01 X41.8841 Y12.8335 
G01 X42.7300 Y11.9876 
G01 X42.7300 Y8.3324 
G01 X40.6141 Y6.2165 
G01 X40.4768 Y6.0376 
G01 X40.3641 Y5.8424 
G01 X40.2778 Y5.6341 
G01 X40.2194 Y5.4163 
G01 X40.1900 Y5.1927 
G01 X40.1900 Y4.9673 
G01 X40.1900 Y2.4273 
G00 Z2.5400 
G00 X19.6041 Y4.1722 
G01 Z-0.1778 F254.00 
G01 X19.3863 Y4.2306 F508.00 
G01 X19.1627 Y4.2600 
G01 X18.9373 Y4.2600 
G01 X18.7137 Y4.2306 
G01 X18.4959 Y4.1722 
G01 X18.2876 Y4.0859 
G01 X18.0924 Y3.9732 
G01 X17.9135 Y3.8359 
G01 X17.7541 Y3.6765 
G01 X17.6168 Y3.4976 
G01 X17.5041 Y3.3024 
G01 X17.4178 Y3.0941 
G01 X17.3594 Y2.8763 
G01 X17.3300 Y2.6527 
G01 X17.3300 Y2.4273 
G01 X17.3594 Y2.2037 
G01 X17.4178 Y1.9859 
G01 X17.5041 Y1.7776 
G01 X17.6168 Y1.5824 
G01 X17.7541 Y1.4035 
G01 X17.9065 Y1.2511 
G01 X18.0659 Y1.0917 
G01 X18.2448 Y0.9544 
G01 X18.4400 Y0.8417 
G01 X18.6483 Y0.7554 
G01 X18.8661 Y0.6970 
G01 X19.0897 Y0.6676 
G01 X29.3227 Y0.6676 
G01 X29.5463 Y0.6970 
G01 X29.7641 Y0.7554 
G01 X29.9724 Y0.8417 
G01 X30.1676 Y0.9544 
G01 X30.3465 Y1.0917 
G01 X30.5059 Y1.2511 
G01 X30.6432 Y1.4300 
G01 X30.7559 Y1.6252 
G01 X30.8422 Y1.8335 
G01 X30.9006 Y2.0513 
G01 X30.9300 Y2.2749 
G01 X30.9300 Y2.5003 
G01 X30.9006 Y2.7239 
G01 X30.8422 Y2.9417 
G01 X30.7559 Y3.1500 
G01 X30.6432 Y3.3452 
G01 X30.5059 Y3.5241 
G01 X30.3465 Y3.6835 
G01 X30.1676 Y3.8208 
G01 X29.9724 Y3.9335 
G01 X29.7641 Y4.0198 
G01 X29.5463 Y4.0782 
G01 X29.3227 Y4.1076 
G01 X19.7601 Y4.1076 
G01 X19.6041 Y4.1722 
G00 Z2.5400 
G00 X17.9135 Y13.9441 
G01 Z-0.1778 F254.00 
G01 X18.0924 Y13.8068 F508.00 
G01 X18.2876 Y13.6941 
G01 X18.4959 Y13.6078 
G01 X18.7137 Y13.5494 
G01 X18.9373 Y13.5200 
G01 X19.1627 Y13.5200 
G01 X19.3863 Y13.5494 
G01 X19.6041 Y13.6078 
G01 X19.8124 Y13.6941 
G01 X20.0076 Y13.8068 
G01 X20.1865 Y13.9441 
G01 X20.3459 Y14.1035 
G01 X20.4832 Y14.2824 
G01 X20.5959 Y14.4776 
G01 X20.6822 Y14.6859 
G01 X20.6885 Y14.7095 
G01 X20.8174 Y14.6950 
G01 X22.3626 Y14.6950 
G01 X22.6360 Y14.7258 
G01 X22.9043 Y14.7870 
G01 X23.1640 Y14.8779 
G01 X23.4120 Y14.9973 
G01 X23.6450 Y15.1437 
G01 X23.8601 Y15.3153 
G01 X24.6897 Y16.1449 
G01 X24.8613 Y16.3600 
G01 X25.0077 Y16.5930 
G01 X25.1271 Y16.8409 
G01 X25.2180 Y17.1007 
G01 X25.2792 Y17.3690 
G01 X25.3100 Y17.6424 
G01 X25.3100 Y17.9176 
G01 X25.2792 Y18.1910 
G01 X25.2180 Y18.4593 
G01 X25.1575 Y18.6320 
G01 X28.0776 Y18.6320 
G01 X28.3510 Y18.6628 
G01 X28.6193 Y18.7240 
G01 X28.8791 Y18.8149 
G01 X29.1270 Y18.9343 
G01 X29.3600 Y19.0807 
G01 X29.5751 Y19.2523 
G01 X29.7697 Y19.4469 
G01 X29.9413 Y19.6620 
G01 X30.0706 Y19.8679 
G01 X30.0893 Y19.8815 
G01 X30.2645 Y20.0566 
G01 X30.4101 Y20.2571 
G01 X30.5226 Y20.4778 
G01 X30.5991 Y20.7134 
G01 X30.6379 Y20.9581 
G01 X30.6379 Y21.2059 
G01 X30.5991 Y21.4506 
G01 X30.5226 Y21.6862 
G01 X30.4101 Y21.9069 
G01 X30.2645 Y22.1074 
G01 X30.0893 Y22.2825 
G01 X30.0706 Y22.2961 
G01 X29.9413 Y22.5020 
G01 X29.7697 Y22.7171 
G01 X29.5751 Y22.9117 
G01 X29.3600 Y23.0833 
G01 X29.1270 Y23.2297 
G01 X28.8791 Y23.3491 
G01 X28.6193 Y23.4400 
G01 X28.3510 Y23.5012 
G01 X28.0776 Y23.5320 
G01 X21.8428 Y23.5320 
G01 X19.6097 Y25.7651 
G01 X19.4151 Y25.9597 
G01 X19.2000 Y26.1313 
G01 X18.9670 Y26.2777 
G01 X18.9600 Y26.2810 
G01 X18.9600 Y28.2046 
G01 X18.9292 Y28.4780 
G01 X18.8680 Y28.7463 
G01 X18.7771 Y29.0061 
G01 X18.6577 Y29.2540 
G01 X18.5113 Y29.4870 
G01 X18.3397 Y29.7021 
G01 X18.1451 Y29.8967 
G01 X17.9300 Y30.0683 
G01 X17.6970 Y30.2147 
G01 X17.4490 Y30.3341 
G01 X17.1893 Y30.4250 
G01 X16.9210 Y30.4862 
G01 X16.6476 Y30.5170 
G01 X6.2124 Y30.5170 
G01 X5.9390 Y30.4862 
G01 X5.6707 Y30.4250 
G01 X5.4109 Y30.3341 
G01 X5.1630 Y30.2147 
G01 X4.9300 Y30.0683 
G01 X4.7149 Y29.8967 
G01 X4.5203 Y29.7021 
G01 X4.3487 Y29.4870 
G01 X4.2023 Y29.2540 
G01 X4.0829 Y29.0061 
G01 X3.9920 Y28.7463 
G01 X3.9308 Y28.4780 
G01 X3.9000 Y28.2046 
G01 X3.9000 Y27.9294 
G01 X3.9308 Y27.6560 
G01 X3.9920 Y27.3877 
G01 X3.9988 Y27.3685 
G01 X3.9920 Y27.3493 
G01 X3.9308 Y27.0810 
G01 X3.9000 Y26.8076 
G01 X3.9000 Y21.3254 
G01 X3.9308 Y21.0520 
G01 X3.9920 Y20.7837 
G01 X4.0829 Y20.5239 
G01 X4.2023 Y20.2760 
G01 X4.3487 Y20.0430 
G01 X4.5203 Y19.8279 
G01 X4.7149 Y19.6333 
G01 X5.7903 Y18.5579 
G01 X5.9849 Y18.3633 
G01 X6.2000 Y18.1917 
G01 X6.4330 Y18.0453 
G01 X6.6809 Y17.9259 
G01 X6.9407 Y17.8350 
G01 X7.2090 Y17.7738 
G01 X7.4824 Y17.7430 
G01 X14.1076 Y17.7430 
G01 X14.1138 Y17.7437 
G01 X17.9135 Y13.9441 
G00 Z2.5400 
G00 X35.1100 Y7.7327 
G01 Z-0.1778 F254.00 
G01 X35.1100 Y2.4273 F508.00 
G01 X35.1394 Y2.2037 
G01 X35.1978 Y1.9859 
G01 X35.2841 Y1.7776 
G01 X35.3968 Y1.5824 
G01 X35.5341 Y1.4035 
G01 X35.6935 Y1.2441 
G01 X35.8724 Y1.1068 
G01 X36.0676 Y0.9941 
G01 X36.2759 Y0.9078 
G01 X36.4937 Y0.8494 
G01 X36.7173 Y0.8200 
G01 X36.9427 Y0.8200 
G01 X37.1663 Y0.8494 
G01 X37.3841 Y0.9078 
G01 X37.5924 Y0.9941 
G01 X37.7876 Y1.1068 
G01 X37.9665 Y1.2441 
G01 X38.1259 Y1.4035 
G01 X38.2632 Y1.5824 
G01 X38.3759 Y1.7776 
G01 X38.4622 Y1.9859 
G01 X38.5206 Y2.2037 
G01 X38.5500 Y2.4273 
G01 X38.5500 Y7.7327 
G01 X38.5206 Y7.9563 
G01 X38.4622 Y8.1741 
G01 X38.3759 Y8.3824 
G01 X38.2632 Y8.5776 
G01 X38.1259 Y8.7565 
G01 X37.9665 Y8.9159 
G01 X37.7876 Y9.0532 
G01 X37.5924 Y9.1659 
G01 X37.3841 Y9.2522 
G01 X37.1663 Y9.3106 
G01 X36.9427 Y9.3400 
G01 X36.7173 Y9.3400 
G01 X36.4937 Y9.3106 
G01 X36.2759 Y9.2522 
G01 X36.0676 Y9.1659 
G01 X35.8724 Y9.0532 
G01 X35.6935 Y8.9159 
G01 X35.5341 Y8.7565 
G01 X35.3968 Y8.5776 
G01 X35.2841 Y8.3824 
G01 X35.1978 Y8.1741 
G01 X35.1394 Y7.9563 
G01 X35.1100 Y7.7327 
G00 Z2.5400 
G00 X17.7483 Y13.7557 
G01 Z-0.1778 F254.00 
G01 X17.9532 Y13.5985 F508.00 
G01 X18.1768 Y13.4694 
G01 X18.4154 Y13.3705 
G01 X18.6648 Y13.3037 
G01 X18.9209 Y13.2700 
G01 X19.1791 Y13.2700 
G01 X19.4352 Y13.3037 
G01 X19.6846 Y13.3705 
G01 X19.9232 Y13.4694 
G01 X20.1468 Y13.5985 
G01 X20.3517 Y13.7557 
G01 X20.5343 Y13.9383 
G01 X20.6915 Y14.1432 
G01 X20.8206 Y14.3668 
G01 X20.8530 Y14.4450 
G01 X22.3766 Y14.4450 
G01 X22.6780 Y14.4790 
G01 X22.9736 Y14.5464 
G01 X23.2599 Y14.6466 
G01 X23.5331 Y14.7782 
G01 X23.7899 Y14.9395 
G01 X24.0270 Y15.1286 
G01 X24.8764 Y15.9780 
G01 X25.0655 Y16.2151 
G01 X25.2268 Y16.4719 
G01 X25.3584 Y16.7451 
G01 X25.4586 Y17.0314 
G01 X25.5260 Y17.3270 
G01 X25.5600 Y17.6284 
G01 X25.5600 Y17.9316 
G01 X25.5260 Y18.2330 
G01 X25.4920 Y18.3820 
G01 X28.0916 Y18.3820 
G01 X28.3930 Y18.4160 
G01 X28.6886 Y18.4834 
G01 X28.9749 Y18.5836 
G01 X29.2481 Y18.7152 
G01 X29.5049 Y18.8765 
G01 X29.7420 Y19.0656 
G01 X29.9564 Y19.2800 
G01 X30.1455 Y19.5171 
G01 X30.2616 Y19.7020 
G01 X30.2691 Y19.7077 
G01 X30.4382 Y19.8768 
G01 X30.5838 Y20.0665 
G01 X30.7033 Y20.2736 
G01 X30.7948 Y20.4945 
G01 X30.8567 Y20.7254 
G01 X30.8879 Y20.9625 
G01 X30.8879 Y21.2015 
G01 X30.8567 Y21.4386 
G01 X30.7948 Y21.6695 
G01 X30.7033 Y21.8904 
G01 X30.5838 Y22.0975 
G01 X30.4382 Y22.2872 
G01 X30.2691 Y22.4563 
G01 X30.2616 Y22.4620 
G01 X30.1455 Y22.6469 
G01 X29.9564 Y22.8840 
G01 X29.7420 Y23.0984 
G01 X29.5049 Y23.2875 
G01 X29.2481 Y23.4488 
G01 X28.9749 Y23.5804 
G01 X28.6886 Y23.6806 
G01 X28.3930 Y23.7480 
G01 X28.0916 Y23.7820 
G01 X21.9464 Y23.7820 
G01 X19.7964 Y25.9320 
G01 X19.5820 Y26.1464 
G01 X19.3449 Y26.3355 
G01 X19.2100 Y26.4202 
G01 X19.2100 Y28.2186 
G01 X19.1760 Y28.5200 
G01 X19.1086 Y28.8156 
G01 X19.0084 Y29.1019 
G01 X18.8768 Y29.3751 
G01 X18.7155 Y29.6319 
G01 X18.5264 Y29.8690 
G01 X18.3120 Y30.0834 
G01 X18.0749 Y30.2725 
G01 X17.8181 Y30.4338 
G01 X17.5449 Y30.5654 
G01 X17.2586 Y30.6656 
G01 X16.9630 Y30.7330 
G01 X16.6616 Y30.7670 
G01 X6.1984 Y30.7670 
G01 X5.8970 Y30.7330 
G01 X5.6014 Y30.6656 
G01 X5.3151 Y30.5654 
G01 X5.0419 Y30.4338 
G01 X4.7851 Y30.2725 
G01 X4.5480 Y30.0834 
G01 X4.3336 Y29.8690 
G01 X4.1445 Y29.6319 
G01 X3.9832 Y29.3751 
G01 X3.8516 Y29.1019 
G01 X3.7514 Y28.8156 
G01 X3.6840 Y28.5200 
G01 X3.6500 Y28.2186 
G01 X3.6500 Y27.9154 
G01 X3.6840 Y27.6140 
G01 X3.7400 Y27.3685 
G01 X3.6840 Y27.1230 
G01 X3.6500 Y26.8216 
G01 X3.6500 Y21.3114 
G01 X3.6840 Y21.0100 
G01 X3.7514 Y20.7144 
G01 X3.8516 Y20.4281 
G01 X3.9832 Y20.1549 
G01 X4.1445 Y19.8981 
G01 X4.3336 Y19.6610 
G01 X4.5480 Y19.4466 
G01 X5.6036 Y18.3910 
G01 X5.8180 Y18.1766 
G01 X6.0551 Y17.9875 
G01 X6.3119 Y17.8262 
G01 X6.5851 Y17.6946 
G01 X6.8714 Y17.5944 
G01 X7.1670 Y17.5270 
G01 X7.4684 Y17.4930 
G01 X14.0110 Y17.4930 
G01 X17.7483 Y13.7557 
G00 Z2.5400 
G00 X19.6846 Y4.4095 
G01 Z-0.1778 F254.00 
G01 X19.4352 Y4.4763 F508.00 
G01 X19.1791 Y4.5100 
G01 X18.9209 Y4.5100 
G01 X18.6648 Y4.4763 
G01 X18.4154 Y4.4095 
G01 X18.1768 Y4.3106 
G01 X17.9532 Y4.1815 
G01 X17.7483 Y4.0243 
G01 X17.5657 Y3.8417 
G01 X17.4085 Y3.6368 
G01 X17.2794 Y3.4132 
G01 X17.1805 Y3.1746 
G01 X17.1137 Y2.9252 
G01 X17.0800 Y2.6691 
G01 X17.0800 Y2.4109 
G01 X17.1137 Y2.1548 
G01 X17.1805 Y1.9054 
G01 X17.2794 Y1.6668 
G01 X17.4085 Y1.4432 
G01 X17.5657 Y1.2383 
G01 X17.7181 Y1.0859 
G01 X17.9007 Y0.9033 
G01 X18.1056 Y0.7461 
G01 X18.3292 Y0.6170 
G01 X18.5678 Y0.5181 
G01 X18.8172 Y0.4513 
G01 X19.0733 Y0.4176 
G01 X29.3391 Y0.4176 
G01 X29.5952 Y0.4513 
G01 X29.8446 Y0.5181 
G01 X30.0832 Y0.6170 
G01 X30.3068 Y0.7461 
G01 X30.5117 Y0.9033 
G01 X30.6943 Y1.0859 
G01 X30.8515 Y1.2908 
G01 X30.9806 Y1.5144 
G01 X31.0795 Y1.7530 
G01 X31.1463 Y2.0024 
G01 X31.1800 Y2.2585 
G01 X31.1800 Y2.5167 
G01 X31.1463 Y2.7728 
G01 X31.0795 Y3.0222 
G01 X30.9806 Y3.2608 
G01 X30.8515 Y3.4844 
G01 X30.6943 Y3.6893 
G01 X30.5117 Y3.8719 
G01 X30.3068 Y4.0291 
G01 X30.0832 Y4.1582 
G01 X29.8446 Y4.2571 
G01 X29.5952 Y4.3239 
G01 X29.3391 Y4.3576 
G01 X19.8098 Y4.3576 
G01 X19.6846 Y4.4095 
G00 Z2.5400 
G00 X41.2589 Y14.4922 
G01 Z-0.1778 F254.00 
G01 X41.1927 Y14.2886 F508.00 
G01 X41.1592 Y14.0771 
G01 X41.1592 Y13.8629 
G01 X41.1927 Y13.6514 
G01 X41.2589 Y13.4478 
G01 X41.3043 Y13.3585 
G01 X41.3105 Y13.3354 
G01 X41.4094 Y13.0968 
G01 X41.5385 Y12.8732 
G01 X41.6957 Y12.6683 
G01 X42.4800 Y11.8840 
G01 X42.4800 Y8.4360 
G01 X40.4257 Y6.3817 
G01 X40.2685 Y6.1768 
G01 X40.1394 Y5.9532 
G01 X40.0405 Y5.7146 
G01 X39.9737 Y5.4652 
G01 X39.9400 Y5.2091 
G01 X39.9400 Y2.4109 
G01 X39.9737 Y2.1548 
G01 X40.0405 Y1.9054 
G01 X40.1394 Y1.6668 
G01 X40.2685 Y1.4432 
G01 X40.4257 Y1.2383 
G01 X40.6083 Y1.0557 
G01 X40.8132 Y0.8985 
G01 X41.0368 Y0.7694 
G01 X41.2754 Y0.6705 
G01 X41.5248 Y0.6037 
G01 X41.7809 Y0.5700 
G01 X42.0391 Y0.5700 
G01 X42.2952 Y0.6037 
G01 X42.5446 Y0.6705 
G01 X42.7832 Y0.7694 
G01 X43.0068 Y0.8985 
G01 X43.2117 Y1.0557 
G01 X43.3943 Y1.2383 
G01 X43.5515 Y1.4432 
G01 X43.6806 Y1.6668 
G01 X43.7795 Y1.9054 
G01 X43.8463 Y2.1548 
G01 X43.8800 Y2.4109 
G01 X43.8800 Y4.2640 
G01 X45.9343 Y6.3183 
G01 X46.0915 Y6.5232 
G01 X46.2206 Y6.7468 
G01 X46.3195 Y6.9854 
G01 X46.3863 Y7.2348 
G01 X46.4200 Y7.4909 
G01 X46.4200 Y12.8291 
G01 X46.3863 Y13.0852 
G01 X46.3195 Y13.3346 
G01 X46.2206 Y13.5732 
G01 X46.0915 Y13.7968 
G01 X45.9343 Y14.0017 
G01 X45.7517 Y14.1843 
G01 X44.4817 Y15.4543 
G01 X44.2768 Y15.6115 
G01 X44.0532 Y15.7406 
G01 X43.8146 Y15.8395 
G01 X43.5652 Y15.9063 
G01 X43.3091 Y15.9400 
G01 X43.0509 Y15.9400 
G01 X42.7948 Y15.9063 
G01 X42.5454 Y15.8395 
G01 X42.3068 Y15.7406 
G01 X42.0832 Y15.6115 
G01 X41.8783 Y15.4543 
G01 X41.6957 Y15.2717 
G01 X41.5385 Y15.0668 
G01 X41.4094 Y14.8432 
G01 X41.3105 Y14.6046 
G01 X41.3043 Y14.5815 
G01 X41.2589 Y14.4922 
G00 Z2.5400 
G00 X32.8684 Y62.0700 
G01 Z-0.1778 F254.00 
G01 X33.1716 Y62.0700 F508.00 
G01 X33.4730 Y62.1040 
G01 X33.7686 Y62.1714 
G01 X34.0549 Y62.2716 
G01 X34.3281 Y62.4032 
G01 X34.5849 Y62.5645 
G01 X34.8220 Y62.7536 
G01 X41.3864 Y69.3180 
G01 X41.5755 Y69.5551 
G01 X41.7368 Y69.8119 
G01 X41.8684 Y70.0851 
G01 X41.9686 Y70.3714 
G01 X42.0360 Y70.6670 
G01 X42.0700 Y70.9684 
G01 X42.0700 Y71.2716 
G01 X42.0360 Y71.5730 
G01 X41.9686 Y71.8686 
G01 X41.8684 Y72.1549 
G01 X41.7368 Y72.4281 
G01 X41.5755 Y72.6849 
G01 X41.3864 Y72.9220 
G01 X41.1720 Y73.1364 
G01 X40.9349 Y73.3255 
G01 X40.6781 Y73.4868 
G01 X40.4049 Y73.6184 
G01 X40.1186 Y73.7186 
G01 X39.8230 Y73.7860 
G01 X39.5216 Y73.8200 
G01 X39.2184 Y73.8200 
G01 X38.9170 Y73.7860 
G01 X38.6214 Y73.7186 
G01 X38.3351 Y73.6184 
G01 X38.0619 Y73.4868 
G01 X37.8051 Y73.3255 
G01 X37.5680 Y73.1364 
G01 X31.9016 Y67.4700 
G01 X30.3284 Y67.4700 
G01 X30.0270 Y67.4360 
G01 X29.7314 Y67.3686 
G01 X29.4451 Y67.2684 
G01 X29.1719 Y67.1368 
G01 X28.9151 Y66.9755 
G01 X28.6780 Y66.7864 
G01 X28.4636 Y66.5720 
G01 X28.2745 Y66.3349 
G01 X28.1132 Y66.0781 
G01 X27.9816 Y65.8049 
G01 X27.8814 Y65.5186 
G01 X27.8140 Y65.2230 
G01 X27.7800 Y64.9216 
G01 X27.7800 Y64.6184 
G01 X27.8140 Y64.3170 
G01 X27.8814 Y64.0214 
G01 X27.9816 Y63.7351 
G01 X28.1132 Y63.4619 
G01 X28.2745 Y63.2051 
G01 X28.2800 Y63.1983 
G01 X28.2800 Y45.3613 
G01 X19.9324 Y37.0137 
G01 X19.7568 Y36.7849 
G01 X19.6126 Y36.5351 
G01 X19.5023 Y36.2687 
G01 X19.4276 Y35.9901 
G01 X19.3900 Y35.7042 
G01 X19.3900 Y29.0658 
G01 X19.4276 Y28.7799 
G01 X19.5023 Y28.5013 
G01 X19.6126 Y28.2349 
G01 X19.7568 Y27.9851 
G01 X19.9324 Y27.7563 
G01 X20.1363 Y27.5524 
G01 X22.6763 Y25.0124 
G01 X22.9051 Y24.8368 
G01 X23.1549 Y24.6926 
G01 X23.4213 Y24.5823 
G01 X23.6999 Y24.5076 
G01 X23.9858 Y24.4700 
G01 X28.0842 Y24.4700 
G01 X28.3701 Y24.5076 
G01 X28.6487 Y24.5823 
G01 X28.9151 Y24.6926 
G01 X29.1649 Y24.8368 
G01 X29.1769 Y24.8461 
G01 X29.1835 Y24.8461 
G01 X29.4205 Y24.8773 
G01 X29.6515 Y24.9391 
G01 X29.8724 Y25.0306 
G01 X30.0795 Y25.1502 
G01 X30.2691 Y25.2957 
G01 X30.4382 Y25.4648 
G01 X30.5838 Y25.6545 
G01 X30.7033 Y25.8616 
G01 X30.7948 Y26.0825 
G01 X30.8567 Y26.3134 
G01 X30.8879 Y26.5505 
G01 X30.8879 Y26.7895 
G01 X30.8567 Y27.0266 
G01 X30.7948 Y27.2575 
G01 X30.7033 Y27.4784 
G01 X30.5838 Y27.6855 
G01 X30.4382 Y27.8752 
G01 X30.2691 Y28.0443 
G01 X30.0795 Y28.1898 
G01 X29.8724 Y28.3094 
G01 X29.6515 Y28.4009 
G01 X29.4205 Y28.4627 
G01 X29.1835 Y28.4939 
G01 X29.1769 Y28.4939 
G01 X29.1649 Y28.5032 
G01 X28.9151 Y28.6474 
G01 X28.6487 Y28.7577 
G01 X28.3701 Y28.8324 
G01 X28.0842 Y28.8700 
G01 X25.0413 Y28.8700 
G01 X23.7900 Y30.1213 
G01 X23.7900 Y34.6487 
G01 X32.1376 Y42.9963 
G01 X32.3132 Y43.2251 
G01 X32.4573 Y43.4749 
G01 X32.5677 Y43.7413 
G01 X32.6424 Y44.0199 
G01 X32.6800 Y44.3058 
G01 X32.6800 Y62.0700 
G01 X32.8684 Y62.0700 
G00 Z2.5400 
G00 X7.3474 Y60.7744 
G01 Z-0.1778 F254.00 
G01 X7.6430 Y60.7070 F508.00 
G01 X7.9444 Y60.6730 
G01 X16.6616 Y60.6730 
G01 X16.9630 Y60.7070 
G01 X17.2586 Y60.7744 
G01 X17.5449 Y60.8746 
G01 X17.8181 Y61.0062 
G01 X18.0749 Y61.1675 
G01 X18.3120 Y61.3566 
G01 X18.5264 Y61.5710 
G01 X18.7155 Y61.8081 
G01 X18.8768 Y62.0649 
G01 X19.0084 Y62.3381 
G01 X19.1086 Y62.6244 
G01 X19.1760 Y62.9200 
G01 X19.2100 Y63.2214 
G01 X19.2100 Y63.5246 
G01 X19.1760 Y63.8260 
G01 X19.1086 Y64.1216 
G01 X19.0084 Y64.4079 
G01 X18.8768 Y64.6811 
G01 X18.7155 Y64.9379 
G01 X18.5264 Y65.1750 
G01 X18.3120 Y65.3894 
G01 X18.0749 Y65.5785 
G01 X17.8181 Y65.7398 
G01 X17.5449 Y65.8714 
G01 X17.2586 Y65.9716 
G01 X16.9630 Y66.0390 
G01 X16.6616 Y66.0730 
G01 X9.0500 Y66.0730 
G01 X9.0500 Y71.2716 
G01 X9.0160 Y71.5730 
G01 X8.9486 Y71.8686 
G01 X8.8484 Y72.1549 
G01 X8.7168 Y72.4281 
G01 X8.5555 Y72.6849 
G01 X8.3664 Y72.9220 
G01 X8.1520 Y73.1364 
G01 X7.9149 Y73.3255 
G01 X7.6581 Y73.4868 
G01 X7.3849 Y73.6184 
G01 X7.0986 Y73.7186 
G01 X6.8030 Y73.7860 
G01 X6.5016 Y73.8200 
G01 X6.1984 Y73.8200 
G01 X5.8970 Y73.7860 
G01 X5.6014 Y73.7186 
G01 X5.3151 Y73.6184 
G01 X5.0419 Y73.4868 
G01 X4.7851 Y73.3255 
G01 X4.5480 Y73.1364 
G01 X4.3336 Y72.9220 
G01 X4.1445 Y72.6849 
G01 X3.9832 Y72.4281 
G01 X3.8516 Y72.1549 
G01 X3.7514 Y71.8686 
G01 X3.6840 Y71.5730 
G01 X3.6500 Y71.2716 
G01 X3.6500 Y63.2214 
G01 X3.6840 Y62.9200 
G01 X3.7514 Y62.6244 
G01 X3.8516 Y62.3381 
G01 X3.9832 Y62.0649 
G01 X4.1445 Y61.8081 
G01 X4.3336 Y61.5710 
G01 X4.5480 Y61.3566 
G01 X4.7851 Y61.1675 
G01 X5.0419 Y61.0062 
G01 X5.3151 Y60.8746 
G01 X5.6014 Y60.7744 
G01 X5.8970 Y60.7070 
G01 X6.1984 Y60.6730 
G01 X6.5016 Y60.6730 
G01 X6.8030 Y60.7070 
G01 X7.0986 Y60.7744 
G01 X7.2230 Y60.8180 
G01 X7.3474 Y60.7744 
G00 Z2.5400 
G00 X33.9319 Y8.8204 
G01 Z-0.1778 F254.00 
G01 X34.3414 Y9.5296 F508.00 
G01 X34.9204 Y10.1086 
G01 X35.6296 Y10.5181 
G01 X36.4206 Y10.7300 
G01 X37.2394 Y10.7300 
G01 X38.0304 Y10.5181 
G01 X38.7396 Y10.1086 
G01 X39.3186 Y9.5296 
G01 X39.7526 Y8.7779 
G01 X39.7641 Y8.7502 
G01 X39.7781 Y8.7292 
G01 X39.7892 Y8.7066 
G01 X39.8077 Y8.6824 
G01 X39.8174 Y8.6657 
G01 X39.8306 Y8.6506 
G01 X39.8490 Y8.6230 
G01 X39.8669 Y8.6052 
G01 X39.8822 Y8.5852 
G01 X39.9074 Y8.5630 
G01 X39.9182 Y8.5508 
G01 X39.9317 Y8.5404 
G01 X39.9571 Y8.5149 
G01 X39.9781 Y8.5009 
G01 X39.9970 Y8.4843 
G01 X40.0286 Y8.4660 
G01 X40.0395 Y8.4577 
G01 X40.0523 Y8.4514 
G01 X40.0843 Y8.4300 
G01 X40.1076 Y8.4203 
G01 X40.1294 Y8.4077 
G01 X40.1663 Y8.3952 
G01 X40.1766 Y8.3901 
G01 X40.1882 Y8.3870 
G01 X40.2255 Y8.3715 
G01 X40.2503 Y8.3666 
G01 X40.2741 Y8.3584 
G01 X40.3147 Y8.3531 
G01 X40.3243 Y8.3505 
G01 X40.3345 Y8.3498 
G01 X40.3755 Y8.3416 
G01 X40.4007 Y8.3416 
G01 X40.4257 Y8.3383 
G01 X40.4679 Y8.3411 
G01 X40.4769 Y8.3405 
G01 X40.4858 Y8.3416 
G01 X40.5284 Y8.3416 
G01 X40.5531 Y8.3466 
G01 X40.5783 Y8.3482 
G01 X40.6199 Y8.3593 
G01 X40.6285 Y8.3604 
G01 X40.6365 Y8.3631 
G01 X40.6784 Y8.3715 
G01 X40.7017 Y8.3811 
G01 X40.7260 Y8.3876 
G01 X40.7647 Y8.4067 
G01 X40.7733 Y8.4096 
G01 X40.7806 Y8.4139 
G01 X40.8196 Y8.4300 
G01 X40.8406 Y8.4440 
G01 X40.8632 Y8.4551 
G01 X40.8970 Y8.4810 
G01 X40.9057 Y8.4860 
G01 X40.9127 Y8.4922 
G01 X40.9467 Y8.5149 
G01 X40.9646 Y8.5328 
G01 X40.9846 Y8.5481 
G01 X41.0119 Y8.5792 
G01 X41.0206 Y8.5868 
G01 X41.0271 Y8.5953 
G01 X41.0586 Y8.6268 
G01 X41.1667 Y8.7349 
G01 X41.2517 Y8.8621 
G01 X41.2835 Y8.9389 
G01 X41.3102 Y9.0033 
G01 X41.3166 Y9.0357 
G01 X41.3400 Y9.1533 
G01 X41.3400 Y11.1667 
G01 X41.3102 Y11.3167 
G01 X41.2517 Y11.4579 
G01 X41.1667 Y11.5851 
G01 X41.0586 Y11.6932 
G01 X40.6914 Y12.0604 
G01 X40.2832 Y12.7674 
G01 X40.2805 Y12.7877 
G01 X40.2641 Y12.8361 
G01 X40.2509 Y12.8853 
G01 X40.2396 Y12.9083 
G01 X40.2314 Y12.9325 
G01 X40.2059 Y12.9767 
G01 X40.1868 Y13.0154 
G01 X40.0192 Y13.6408 
G01 X40.0192 Y14.2992 
G01 X40.1868 Y14.9246 
G01 X40.2059 Y14.9633 
G01 X40.2314 Y15.0075 
G01 X40.2396 Y15.0317 
G01 X40.2509 Y15.0547 
G01 X40.2641 Y15.1039 
G01 X40.2805 Y15.1523 
G01 X40.2832 Y15.1726 
G01 X40.6914 Y15.8796 
G01 X41.2704 Y16.4586 
G01 X41.9796 Y16.8681 
G01 X42.7706 Y17.0800 
G01 X43.5894 Y17.0800 
G01 X44.3804 Y16.8681 
G01 X45.0037 Y16.5082 
G01 X45.0461 Y16.4798 
G01 X45.0697 Y16.4701 
G01 X45.0919 Y16.4573 
G01 X45.1402 Y16.4409 
G01 X45.1874 Y16.4213 
G01 X45.2125 Y16.4163 
G01 X45.2367 Y16.4081 
G01 X45.2873 Y16.4015 
G01 X45.3373 Y16.3915 
G01 X45.3629 Y16.3915 
G01 X45.3883 Y16.3882 
G01 X45.4392 Y16.3915 
G01 X45.4903 Y16.3915 
G01 X45.5153 Y16.3965 
G01 X45.5408 Y16.3982 
G01 X45.5901 Y16.4114 
G01 X45.6402 Y16.4213 
G01 X45.6638 Y16.4311 
G01 X45.6885 Y16.4377 
G01 X45.7343 Y16.4603 
G01 X45.7815 Y16.4798 
G01 X45.8027 Y16.4941 
G01 X45.8257 Y16.5054 
G01 X45.8661 Y16.5364 
G01 X45.9086 Y16.5648 
G01 X45.9267 Y16.5829 
G01 X45.9470 Y16.5984 
G01 X45.9806 Y16.6368 
G01 X46.0167 Y16.6729 
G01 X46.0309 Y16.6942 
G01 X46.0478 Y16.7134 
G01 X46.0733 Y16.7576 
G01 X46.1017 Y16.8000 
G01 X46.1114 Y16.8237 
G01 X46.1242 Y16.8458 
G01 X46.1406 Y16.8942 
G01 X46.1602 Y16.9413 
G01 X46.1652 Y16.9664 
G01 X46.1734 Y16.9906 
G01 X46.1800 Y17.0412 
G01 X46.1900 Y17.0913 
G01 X46.1900 Y17.1168 
G01 X46.1933 Y17.1422 
G01 X46.1900 Y17.1931 
G01 X46.1900 Y19.2635 
G01 X46.1602 Y19.4135 
G01 X46.1585 Y19.4176 
G01 X46.1017 Y19.5547 
G01 X46.0460 Y19.6380 
G01 X46.0167 Y19.6819 
G01 X45.9086 Y19.7900 
G01 X45.8567 Y19.8247 
G01 X45.7815 Y19.8749 
G01 X45.6828 Y19.9158 
G01 X45.6402 Y19.9334 
G01 X45.4903 Y19.9633 
G01 X45.2255 Y20.0159 
G01 X43.9661 Y20.5376 
G01 X42.8328 Y21.2949 
G01 X41.8689 Y22.2588 
G01 X41.1116 Y23.3921 
G01 X40.5899 Y24.6515 
G01 X40.3240 Y25.9884 
G01 X40.3240 Y27.3516 
G01 X40.5899 Y28.6885 
G01 X41.1116 Y29.9478 
G01 X41.8689 Y31.0812 
G01 X42.8328 Y32.0451 
G01 X43.9661 Y32.8024 
G01 X45.2255 Y33.3241 
G01 X45.4902 Y33.3767 
G01 X45.6402 Y33.4066 
G01 X45.6804 Y33.4232 
G01 X45.7815 Y33.4651 
G01 X45.8587 Y33.5167 
G01 X45.9086 Y33.5500 
G01 X46.0150 Y33.6564 
G01 X46.0438 Y33.6986 
G01 X46.1017 Y33.7853 
G01 X46.1602 Y33.9265 
G01 X46.1900 Y34.0765 
G01 X46.1900 Y40.4413 
G01 X46.3819 Y40.5521 
G01 X46.5577 Y40.6870 
G01 X46.7144 Y40.8437 
G01 X46.8493 Y41.0195 
G01 X46.9601 Y41.2115 
G01 X47.0449 Y41.4162 
G01 X47.1023 Y41.6303 
G01 X47.1312 Y41.8500 
G01 X47.1312 Y42.0716 
G01 X47.1023 Y42.2913 
G01 X47.0449 Y42.5054 
G01 X46.9601 Y42.7101 
G01 X46.8493 Y42.9021 
G01 X46.7144 Y43.0779 
G01 X46.5577 Y43.2346 
G01 X46.3819 Y43.3695 
G01 X46.1899 Y43.4803 
G01 X45.9852 Y43.5651 
G01 X45.7711 Y43.6225 
G01 X45.5514 Y43.6514 
G01 X45.1269 Y43.6514 
G01 X45.1122 Y43.6533 
G01 X45.0827 Y43.6514 
G01 X43.9103 Y43.6514 
G01 X43.2998 Y43.8150 
G01 X43.2761 Y43.8248 
G01 X43.2260 Y43.8347 
G01 X43.1768 Y43.8479 
G01 X43.1513 Y43.8496 
G01 X43.1262 Y43.8546 
G01 X43.0751 Y43.8546 
G01 X43.0242 Y43.8579 
G01 X42.9988 Y43.8546 
G01 X38.9860 Y43.8546 
G01 X38.1950 Y44.0665 
G01 X37.4858 Y44.4760 
G01 X36.9068 Y45.0550 
G01 X36.4973 Y45.7642 
G01 X36.2854 Y46.5552 
G01 X36.2854 Y47.3740 
G01 X36.4973 Y48.1650 
G01 X36.9068 Y48.8742 
G01 X37.4858 Y49.4532 
G01 X38.1950 Y49.8627 
G01 X38.9860 Y50.0746 
G01 X40.4103 Y50.0746 
G01 X40.5602 Y50.1044 
G01 X40.7015 Y50.1629 
G01 X40.8286 Y50.2479 
G01 X40.9367 Y50.3560 
G01 X41.0217 Y50.4831 
G01 X41.0802 Y50.6244 
G01 X41.1100 Y50.7743 
G01 X41.1100 Y59.7665 
G01 X41.0802 Y59.9164 
G01 X41.0217 Y60.0577 
G01 X40.9367 Y60.1848 
G01 X40.8286 Y60.2929 
G01 X40.7015 Y60.3779 
G01 X40.5602 Y60.4364 
G01 X40.4103 Y60.4662 
G01 X38.0235 Y60.4662 
G01 X37.8736 Y60.4364 
G01 X37.7323 Y60.3779 
G01 X37.6052 Y60.2929 
G01 X37.4971 Y60.1848 
G01 X33.9933 Y56.6810 
G01 X33.9083 Y56.5539 
G01 X33.8498 Y56.4126 
G01 X33.8200 Y56.2626 
G01 X33.8200 Y44.0103 
G01 X33.5924 Y43.1608 
G01 X33.1527 Y42.3992 
G01 X25.1033 Y34.3498 
G01 X25.0183 Y34.2227 
G01 X24.9598 Y34.0814 
G01 X24.9300 Y33.9315 
G01 X24.9300 Y30.8385 
G01 X24.9475 Y30.7507 
G01 X24.9598 Y30.6886 
G01 X25.0183 Y30.5473 
G01 X25.0688 Y30.4718 
G01 X25.1033 Y30.4202 
G01 X25.2114 Y30.3121 
G01 X25.3402 Y30.1833 
G01 X25.4673 Y30.0983 
G01 X25.5855 Y30.0494 
G01 X25.6086 Y30.0398 
G01 X25.6707 Y30.0275 
G01 X25.7585 Y30.0100 
G01 X28.3797 Y30.0100 
G01 X29.2292 Y29.7824 
G01 X29.3816 Y29.6944 
G01 X29.4018 Y29.6788 
G01 X29.4476 Y29.6563 
G01 X29.4918 Y29.6308 
G01 X29.5160 Y29.6225 
G01 X29.5390 Y29.6112 
G01 X29.5883 Y29.5980 
G01 X29.6366 Y29.5816 
G01 X29.6620 Y29.5783 
G01 X30.2080 Y29.4320 
G01 X30.8839 Y29.0417 
G01 X31.4357 Y28.4899 
G01 X31.8259 Y27.8140 
G01 X32.0279 Y27.0602 
G01 X32.0279 Y26.2798 
G01 X31.8259 Y25.5260 
G01 X31.4357 Y24.8501 
G01 X31.1220 Y24.5364 
G01 X31.0759 Y24.4902 
G01 X31.0139 Y24.4283 
G01 X30.9755 Y24.3708 
G01 X30.9289 Y24.3011 
G01 X30.9018 Y24.2356 
G01 X30.8704 Y24.1599 
G01 X30.8590 Y24.1022 
G01 X30.8406 Y24.0099 
G01 X30.8406 Y23.9338 
G01 X30.8406 Y23.8570 
G01 X30.8547 Y23.7860 
G01 X30.8704 Y23.7071 
G01 X30.8983 Y23.6398 
G01 X30.9289 Y23.5658 
G01 X30.9717 Y23.5019 
G01 X31.0104 Y23.4439 
G01 X31.0933 Y23.3003 
G01 X31.1031 Y23.2767 
G01 X31.1314 Y23.2343 
G01 X31.1569 Y23.1901 
G01 X31.1738 Y23.1708 
G01 X31.1880 Y23.1496 
G01 X31.2241 Y23.1135 
G01 X31.2578 Y23.0751 
G01 X31.2780 Y23.0596 
G01 X31.4357 Y22.9019 
G01 X31.8259 Y22.2260 
G01 X32.0279 Y21.4722 
G01 X32.0279 Y20.6918 
G01 X31.8259 Y19.9380 
G01 X31.4357 Y19.2621 
G01 X31.2780 Y19.1044 
G01 X31.2578 Y19.0889 
G01 X31.2241 Y19.0505 
G01 X31.1880 Y19.0144 
G01 X31.1738 Y18.9931 
G01 X31.1569 Y18.9739 
G01 X31.1314 Y18.9297 
G01 X31.1031 Y18.8873 
G01 X31.0933 Y18.8637 
G01 X31.0128 Y18.7242 
G01 X30.2978 Y18.0092 
G01 X29.4222 Y17.5037 
G01 X28.4455 Y17.2420 
G01 X27.3123 Y17.2420 
G01 X27.2614 Y17.2453 
G01 X27.2360 Y17.2420 
G01 X27.2104 Y17.2420 
G01 X27.1604 Y17.2320 
G01 X27.1098 Y17.2254 
G01 X27.0856 Y17.2172 
G01 X27.0605 Y17.2122 
G01 X27.0133 Y17.1926 
G01 X26.9650 Y17.1762 
G01 X26.9429 Y17.1634 
G01 X26.9192 Y17.1537 
G01 X26.8768 Y17.1253 
G01 X26.8326 Y17.0998 
G01 X26.8134 Y17.0829 
G01 X26.7921 Y17.0687 
G01 X26.7560 Y17.0326 
G01 X26.7176 Y16.9990 
G01 X26.7021 Y16.9787 
G01 X26.6840 Y16.9606 
G01 X26.6556 Y16.9182 
G01 X26.6246 Y16.8777 
G01 X26.6132 Y16.8547 
G01 X26.5990 Y16.8335 
G01 X26.5795 Y16.7863 
G01 X26.5569 Y16.7405 
G01 X26.5503 Y16.7158 
G01 X26.5405 Y16.6922 
G01 X26.5306 Y16.6421 
G01 X26.4383 Y16.2978 
G01 X25.9328 Y15.4222 
G01 X24.5828 Y14.0722 
G01 X23.7072 Y13.5667 
G01 X22.7305 Y13.3050 
G01 X21.7583 Y13.3050 
G01 X21.6083 Y13.2752 
G01 X21.4670 Y13.2167 
G01 X21.3399 Y13.1317 
G01 X21.2318 Y13.0236 
G01 X20.9596 Y12.7514 
G01 X20.2504 Y12.3419 
G01 X19.4594 Y12.1300 
G01 X18.6406 Y12.1300 
G01 X17.8496 Y12.3419 
G01 X17.1404 Y12.7514 
G01 X13.7121 Y16.1797 
G01 X13.5849 Y16.2647 
G01 X13.4437 Y16.3232 
G01 X13.2937 Y16.3530 
G01 X7.1145 Y16.3530 
G01 X6.4222 Y16.5385 
G01 X6.3986 Y16.5483 
G01 X6.3485 Y16.5582 
G01 X6.2993 Y16.5714 
G01 X6.2737 Y16.5731 
G01 X6.2486 Y16.5781 
G01 X6.1976 Y16.5781 
G01 X6.1467 Y16.5814 
G01 X6.1213 Y16.5781 
G01 X6.0957 Y16.5781 
G01 X6.0457 Y16.5681 
G01 X5.9951 Y16.5615 
G01 X5.9709 Y16.5533 
G01 X5.9458 Y16.5483 
G01 X5.8986 Y16.5287 
G01 X5.8503 Y16.5123 
G01 X5.8281 Y16.4995 
G01 X5.8045 Y16.4898 
G01 X5.7621 Y16.4614 
G01 X5.7179 Y16.4359 
G01 X5.6987 Y16.4190 
G01 X5.6774 Y16.4048 
G01 X5.6413 Y16.3687 
G01 X5.6029 Y16.3351 
G01 X5.5874 Y16.3148 
G01 X5.5693 Y16.2967 
G01 X5.5409 Y16.2543 
G01 X5.5099 Y16.2138 
G01 X5.4985 Y16.1908 
G01 X5.4843 Y16.1696 
G01 X5.4648 Y16.1224 
G01 X5.4422 Y16.0766 
G01 X5.4356 Y16.0519 
G01 X5.4258 Y16.0283 
G01 X5.4159 Y15.9782 
G01 X5.4027 Y15.9290 
G01 X5.4010 Y15.9034 
G01 X5.3960 Y15.8783 
G01 X5.3960 Y15.8273 
G01 X5.3927 Y15.7764 
G01 X5.3960 Y15.7510 
G01 X5.3960 Y3.5557 
G01 X5.4258 Y3.4058 
G01 X5.4843 Y3.2645 
G01 X5.5693 Y3.1374 
G01 X5.6774 Y3.0293 
G01 X5.8045 Y2.9443 
G01 X5.9458 Y2.8858 
G01 X6.0957 Y2.8560 
G01 X15.2940 Y2.8560 
G01 X15.3449 Y2.8527 
G01 X15.3702 Y2.8560 
G01 X15.3958 Y2.8560 
G01 X15.4459 Y2.8660 
G01 X15.4965 Y2.8726 
G01 X15.5207 Y2.8808 
G01 X15.5458 Y2.8858 
G01 X15.5929 Y2.9054 
G01 X15.6413 Y2.9218 
G01 X15.6634 Y2.9346 
G01 X15.6870 Y2.9443 
G01 X15.7295 Y2.9727 
G01 X15.7737 Y2.9982 
G01 X15.7929 Y3.0151 
G01 X15.8142 Y3.0293 
G01 X15.8503 Y3.0654 
G01 X15.8886 Y3.0990 
G01 X15.9042 Y3.1193 
G01 X15.9223 Y3.1374 
G01 X15.9506 Y3.1798 
G01 X15.9817 Y3.2203 
G01 X15.9930 Y3.2433 
G01 X16.0072 Y3.2645 
G01 X16.0267 Y3.3117 
G01 X16.0493 Y3.3575 
G01 X16.0559 Y3.3822 
G01 X16.0657 Y3.4058 
G01 X16.0757 Y3.4559 
G01 X16.1519 Y3.7404 
G01 X16.5614 Y4.4496 
G01 X17.1404 Y5.0286 
G01 X17.8496 Y5.4381 
G01 X18.6406 Y5.6500 
G01 X19.4594 Y5.6500 
G01 X19.8803 Y5.5372 
G01 X19.9040 Y5.5274 
G01 X19.9541 Y5.5175 
G01 X20.0033 Y5.5043 
G01 X20.0289 Y5.5026 
G01 X20.0539 Y5.4976 
G01 X20.1050 Y5.4976 
G01 X20.1559 Y5.4943 
G01 X20.1813 Y5.4976 
G01 X29.6194 Y5.4976 
G01 X30.4104 Y5.2857 
G01 X31.1196 Y4.8762 
G01 X31.6986 Y4.2972 
G01 X32.1081 Y3.5880 
G01 X32.1435 Y3.4559 
G01 X32.1534 Y3.4058 
G01 X32.1632 Y3.3821 
G01 X32.1698 Y3.3575 
G01 X32.1924 Y3.3117 
G01 X32.2119 Y3.2645 
G01 X32.2261 Y3.2433 
G01 X32.2375 Y3.2203 
G01 X32.2685 Y3.1799 
G01 X32.2969 Y3.1374 
G01 X32.3150 Y3.1193 
G01 X32.3305 Y3.0990 
G01 X32.3689 Y3.0654 
G01 X32.4050 Y3.0293 
G01 X32.4263 Y3.0151 
G01 X32.4455 Y2.9982 
G01 X32.4897 Y2.9727 
G01 X32.5321 Y2.9443 
G01 X32.5558 Y2.9346 
G01 X32.5779 Y2.9218 
G01 X32.6262 Y2.9054 
G01 X32.6734 Y2.8858 
G01 X32.6985 Y2.8808 
G01 X32.7227 Y2.8726 
G01 X32.7733 Y2.8660 
G01 X32.8233 Y2.8560 
G01 X32.8489 Y2.8560 
G01 X32.8743 Y2.8527 
G01 X32.9252 Y2.8560 
G01 X33.0203 Y2.8560 
G01 X33.1702 Y2.8858 
G01 X33.3115 Y2.9443 
G01 X33.4386 Y3.0293 
G01 X33.5467 Y3.1374 
G01 X33.6317 Y3.2645 
G01 X33.6902 Y3.4058 
G01 X33.7200 Y3.5557 
G01 X33.7200 Y8.0294 
G01 X33.9319 Y8.8204 
G00 Z2.5400 
G00 X50.6777 Y48.6476 
G01 Z-0.1778 F254.00 
G01 X50.4489 Y48.8232 F508.00 
G01 X50.1991 Y48.9674 
G01 X49.9327 Y49.0777 
G01 X49.6541 Y49.1524 
G01 X49.3682 Y49.1900 
G01 X47.6900 Y49.1900 
G01 X47.6900 Y63.7821 
G01 X47.6974 Y63.7949 
G01 X47.8077 Y64.0613 
G01 X47.8824 Y64.3399 
G01 X47.9200 Y64.6258 
G01 X47.9200 Y64.9142 
G01 X47.8824 Y65.2001 
G01 X47.8077 Y65.4787 
G01 X47.6974 Y65.7451 
G01 X47.5532 Y65.9949 
G01 X47.3776 Y66.2237 
G01 X47.1737 Y66.4276 
G01 X46.9449 Y66.6032 
G01 X46.6951 Y66.7473 
G01 X46.4287 Y66.8577 
G01 X46.1501 Y66.9324 
G01 X45.8642 Y66.9700 
G01 X45.5758 Y66.9700 
G01 X45.2899 Y66.9324 
G01 X45.0113 Y66.8577 
G01 X44.7449 Y66.7473 
G01 X44.4951 Y66.6032 
G01 X44.2663 Y66.4276 
G01 X42.7924 Y64.9537 
G01 X42.6168 Y64.7249 
G01 X42.4726 Y64.4751 
G01 X42.3623 Y64.2087 
G01 X42.2876 Y63.9301 
G01 X42.2500 Y63.6442 
G01 X42.2500 Y48.9346 
G01 X39.2663 Y48.9346 
G01 X39.0102 Y48.9009 
G01 X38.7608 Y48.8341 
G01 X38.5222 Y48.7352 
G01 X38.2986 Y48.6061 
G01 X38.0937 Y48.4489 
G01 X37.9111 Y48.2663 
G01 X37.7539 Y48.0614 
G01 X37.6248 Y47.8378 
G01 X37.5259 Y47.5992 
G01 X37.4591 Y47.3498 
G01 X37.4254 Y47.0937 
G01 X37.4254 Y46.8355 
G01 X37.4591 Y46.5794 
G01 X37.5259 Y46.3300 
G01 X37.6248 Y46.0914 
G01 X37.7539 Y45.8678 
G01 X37.9111 Y45.6629 
G01 X38.0937 Y45.4803 
G01 X38.2986 Y45.3231 
G01 X38.5222 Y45.1940 
G01 X38.7608 Y45.0951 
G01 X39.0102 Y45.0283 
G01 X39.2663 Y44.9946 
G01 X43.4621 Y44.9946 
G01 X43.4749 Y44.9872 
G01 X43.7413 Y44.8769 
G01 X44.0199 Y44.8022 
G01 X44.3058 Y44.7646 
G01 X44.5942 Y44.7646 
G01 X44.7871 Y44.7900 
G01 X47.3300 Y44.7900 
G01 X47.3300 Y1.1258 
G01 X47.3676 Y0.8399 
G01 X47.4423 Y0.5613 
G01 X47.5526 Y0.2949 
G01 X47.6968 Y0.0451 
G01 X47.8724 Y-0.1837 
G01 X48.0763 Y-0.3876 
G01 X48.3051 Y-0.5632 
G01 X48.5549 Y-0.7074 
G01 X48.8213 Y-0.8177 
G01 X49.0999 Y-0.8924 
G01 X49.3858 Y-0.9300 
G01 X49.6742 Y-0.9300 
G01 X49.9601 Y-0.8924 
G01 X50.2387 Y-0.8177 
G01 X50.5051 Y-0.7074 
G01 X50.7549 Y-0.5632 
G01 X50.9837 Y-0.3876 
G01 X51.1876 Y-0.1837 
G01 X51.3632 Y0.0451 
G01 X51.5074 Y0.2949 
G01 X51.6177 Y0.5613 
G01 X51.6924 Y0.8399 
G01 X51.7300 Y1.1258 
G01 X51.7300 Y46.8282 
G01 X51.6924 Y47.1141 
G01 X51.6177 Y47.3927 
G01 X51.5074 Y47.6591 
G01 X51.3632 Y47.9089 
G01 X51.1876 Y48.1377 
G01 X50.9837 Y48.3416 
G01 X50.6777 Y48.6476 
G00 Z2.5400 
G00 X7.0986 Y50.9856 
G01 Z-0.1778 F254.00 
G01 X6.8030 Y51.0530 F508.00 
G01 X6.5016 Y51.0870 
G01 X6.1984 Y51.0870 
G01 X5.8970 Y51.0530 
G01 X5.6014 Y50.9856 
G01 X5.3151 Y50.8854 
G01 X5.0419 Y50.7538 
G01 X4.7851 Y50.5925 
G01 X4.5480 Y50.4034 
G01 X4.3336 Y50.1890 
G01 X4.1445 Y49.9519 
G01 X3.9832 Y49.6951 
G01 X3.8516 Y49.4219 
G01 X3.7514 Y49.1356 
G01 X3.6840 Y48.8400 
G01 X3.6500 Y48.5386 
G01 X3.6500 Y43.0284 
G01 X3.6840 Y42.7270 
G01 X3.7514 Y42.4314 
G01 X3.8516 Y42.1451 
G01 X3.9832 Y41.8719 
G01 X4.1445 Y41.6151 
G01 X4.3336 Y41.3780 
G01 X4.5480 Y41.1636 
G01 X4.7851 Y40.9745 
G01 X5.0419 Y40.8132 
G01 X5.3151 Y40.6816 
G01 X5.6014 Y40.5814 
G01 X5.8970 Y40.5140 
G01 X6.1984 Y40.4800 
G01 X15.6883 Y40.4800 
G01 X15.7614 Y40.4544 
G01 X16.0570 Y40.3870 
G01 X16.3584 Y40.3530 
G01 X16.6616 Y40.3530 
G01 X16.9630 Y40.3870 
G01 X17.2586 Y40.4544 
G01 X17.5449 Y40.5546 
G01 X17.8181 Y40.6862 
G01 X18.0749 Y40.8475 
G01 X18.3120 Y41.0366 
G01 X18.5264 Y41.2510 
G01 X18.7155 Y41.4881 
G01 X18.8768 Y41.7449 
G01 X19.0084 Y42.0181 
G01 X19.1086 Y42.3044 
G01 X19.1760 Y42.6000 
G01 X19.2100 Y42.9014 
G01 X19.2100 Y48.5386 
G01 X19.1760 Y48.8400 
G01 X19.1086 Y49.1356 
G01 X19.0084 Y49.4219 
G01 X18.8768 Y49.6951 
G01 X18.7155 Y49.9519 
G01 X18.5264 Y50.1890 
G01 X18.3120 Y50.4034 
G01 X18.0749 Y50.5925 
G01 X17.8181 Y50.7538 
G01 X17.5449 Y50.8854 
G01 X17.2586 Y50.9856 
G01 X16.9630 Y51.0530 
G01 X16.6616 Y51.0870 
G01 X16.3584 Y51.0870 
G01 X16.0570 Y51.0530 
G01 X15.7614 Y50.9856 
G01 X15.6883 Y50.9600 
G01 X7.1717 Y50.9600 
G01 X7.0986 Y50.9856 
G00 Z2.5400 
G00 X34.8600 Y7.7491 
G01 Z-0.1778 F254.00 
G01 X34.8600 Y2.4109 F508.00 
G01 X34.8937 Y2.1548 
G01 X34.9605 Y1.9054 
G01 X35.0594 Y1.6668 
G01 X35.1885 Y1.4432 
G01 X35.3457 Y1.2383 
G01 X35.5283 Y1.0557 
G01 X35.7332 Y0.8985 
G01 X35.9568 Y0.7694 
G01 X36.1954 Y0.6705 
G01 X36.4448 Y0.6037 
G01 X36.7009 Y0.5700 
G01 X36.9591 Y0.5700 
G01 X37.2152 Y0.6037 
G01 X37.4646 Y0.6705 
G01 X37.7032 Y0.7694 
G01 X37.9268 Y0.8985 
G01 X38.1317 Y1.0557 
G01 X38.3143 Y1.2383 
G01 X38.4715 Y1.4432 
G01 X38.6006 Y1.6668 
G01 X38.6995 Y1.9054 
G01 X38.7663 Y2.1548 
G01 X38.8000 Y2.4109 
G01 X38.8000 Y7.7491 
G01 X38.7663 Y8.0052 
G01 X38.6995 Y8.2546 
G01 X38.6006 Y8.4932 
G01 X38.4715 Y8.7168 
G01 X38.3143 Y8.9217 
G01 X38.1317 Y9.1043 
G01 X37.9268 Y9.2615 
G01 X37.7032 Y9.3906 
G01 X37.4646 Y9.4895 
G01 X37.2152 Y9.5563 
G01 X36.9591 Y9.5900 
G01 X36.7009 Y9.5900 
G01 X36.4448 Y9.5563 
G01 X36.1954 Y9.4895 
G01 X35.9568 Y9.3906 
G01 X35.7332 Y9.2615 
G01 X35.5283 Y9.1043 
G01 X35.3457 Y8.9217 
G01 X35.1885 Y8.7168 
G01 X35.0594 Y8.4932 
G01 X34.9605 Y8.2546 
G01 X34.8937 Y8.0052 
G01 X34.8600 Y7.7491 
G00 Z2.5400 
G00 X17.5831 Y13.5673 
G01 Z-0.1778 F254.00 
G01 X17.8140 Y13.3902 F508.00 
G01 X18.0660 Y13.2447 
G01 X18.3349 Y13.1333 
G01 X18.6160 Y13.0580 
G01 X18.9045 Y13.0200 
G01 X19.1955 Y13.0200 
G01 X19.4840 Y13.0580 
G01 X19.7651 Y13.1333 
G01 X20.0340 Y13.2447 
G01 X20.2860 Y13.3902 
G01 X20.5169 Y13.5673 
G01 X20.7227 Y13.7731 
G01 X20.8998 Y14.0040 
G01 X21.0101 Y14.1950 
G01 X22.3907 Y14.1950 
G01 X22.7199 Y14.2321 
G01 X23.0430 Y14.3058 
G01 X23.3557 Y14.4153 
G01 X23.6542 Y14.5590 
G01 X23.9348 Y14.7353 
G01 X24.1938 Y14.9419 
G01 X25.0631 Y15.8112 
G01 X25.2697 Y16.0702 
G01 X25.4460 Y16.3508 
G01 X25.5897 Y16.6493 
G01 X25.6992 Y16.9620 
G01 X25.7729 Y17.2851 
G01 X25.8100 Y17.6143 
G01 X25.8100 Y17.9457 
G01 X25.7890 Y18.1320 
G01 X28.1057 Y18.1320 
G01 X28.4349 Y18.1691 
G01 X28.7580 Y18.2428 
G01 X29.0707 Y18.3523 
G01 X29.3692 Y18.4960 
G01 X29.6498 Y18.6723 
G01 X29.9088 Y18.8789 
G01 X30.1431 Y19.1132 
G01 X30.3497 Y19.3722 
G01 X30.4554 Y19.5404 
G01 X30.6266 Y19.7116 
G01 X30.7921 Y19.9273 
G01 X30.9280 Y20.1627 
G01 X31.0320 Y20.4139 
G01 X31.1024 Y20.6765 
G01 X31.1379 Y20.9461 
G01 X31.1379 Y21.2179 
G01 X31.1024 Y21.4875 
G01 X31.0320 Y21.7501 
G01 X30.9280 Y22.0013 
G01 X30.7921 Y22.2367 
G01 X30.6266 Y22.4524 
G01 X30.4554 Y22.6236 
G01 X30.3497 Y22.7918 
G01 X30.1431 Y23.0508 
G01 X29.9088 Y23.2851 
G01 X29.6498 Y23.4917 
G01 X29.3692 Y23.6680 
G01 X29.0707 Y23.8117 
G01 X28.7580 Y23.9212 
G01 X28.4349 Y23.9949 
G01 X28.1057 Y24.0320 
G01 X22.0499 Y24.0320 
G01 X19.9831 Y26.0988 
G01 X19.7488 Y26.3331 
G01 X19.4898 Y26.5397 
G01 X19.4600 Y26.5584 
G01 X19.4600 Y27.9949 
G01 X19.5887 Y27.7900 
G01 X19.7603 Y27.5749 
G01 X19.9549 Y27.3803 
G01 X22.4949 Y24.8403 
G01 X22.7100 Y24.6687 
G01 X22.9430 Y24.5223 
G01 X23.1909 Y24.4029 
G01 X23.4507 Y24.3120 
G01 X23.7190 Y24.2508 
G01 X23.9924 Y24.2200 
G01 X28.0776 Y24.2200 
G01 X28.3510 Y24.2508 
G01 X28.6193 Y24.3120 
G01 X28.8791 Y24.4029 
G01 X29.1270 Y24.5223 
G01 X29.2561 Y24.6035 
G01 X29.4694 Y24.6315 
G01 X29.7320 Y24.7019 
G01 X29.9832 Y24.8059 
G01 X30.2186 Y24.9419 
G01 X30.4343 Y25.1074 
G01 X30.6266 Y25.2996 
G01 X30.7921 Y25.5153 
G01 X30.9280 Y25.7507 
G01 X31.0320 Y26.0019 
G01 X31.1024 Y26.2645 
G01 X31.1379 Y26.5341 
G01 X31.1379 Y26.8059 
G01 X31.1024 Y27.0755 
G01 X31.0320 Y27.3381 
G01 X30.9280 Y27.5892 
G01 X30.7921 Y27.8247 
G01 X30.6266 Y28.0404 
G01 X30.4343 Y28.2326 
G01 X30.2186 Y28.3981 
G01 X29.9832 Y28.5341 
G01 X29.7320 Y28.6381 
G01 X29.4694 Y28.7085 
G01 X29.2561 Y28.7365 
G01 X29.1270 Y28.8177 
G01 X28.8791 Y28.9371 
G01 X28.6193 Y29.0280 
G01 X28.3510 Y29.0892 
G01 X28.0776 Y29.1200 
G01 X25.1448 Y29.1200 
G01 X24.0400 Y30.2248 
G01 X24.0400 Y34.5452 
G01 X32.3097 Y42.8149 
G01 X32.4813 Y43.0300 
G01 X32.6277 Y43.2630 
G01 X32.7471 Y43.5109 
G01 X32.8380 Y43.7707 
G01 X32.8992 Y44.0390 
G01 X32.9300 Y44.3124 
G01 X32.9300 Y61.8200 
G01 X33.1857 Y61.8200 
G01 X33.5149 Y61.8571 
G01 X33.8379 Y61.9308 
G01 X34.1507 Y62.0403 
G01 X34.4492 Y62.1840 
G01 X34.7298 Y62.3603 
G01 X34.9888 Y62.5669 
G01 X41.5731 Y69.1512 
G01 X41.7797 Y69.4102 
G01 X41.9560 Y69.6908 
G01 X42.0997 Y69.9893 
G01 X42.2092 Y70.3020 
G01 X42.2829 Y70.6251 
G01 X42.3200 Y70.9543 
G01 X42.3200 Y71.2857 
G01 X42.2829 Y71.6149 
G01 X42.2092 Y71.9380 
G01 X42.0997 Y72.2507 
G01 X41.9560 Y72.5492 
G01 X41.7797 Y72.8298 
G01 X41.5731 Y73.0888 
G01 X41.3388 Y73.3231 
G01 X41.0798 Y73.5297 
G01 X40.7992 Y73.7060 
G01 X40.5007 Y73.8497 
G01 X40.1880 Y73.9592 
G01 X39.8649 Y74.0329 
G01 X39.5357 Y74.0700 
G01 X39.2043 Y74.0700 
G01 X38.8751 Y74.0329 
G01 X38.5520 Y73.9592 
G01 X38.2393 Y73.8497 
G01 X37.9408 Y73.7060 
G01 X37.6602 Y73.5297 
G01 X37.4012 Y73.3231 
G01 X31.7981 Y67.7200 
G01 X30.3143 Y67.7200 
G01 X29.9851 Y67.6829 
G01 X29.6620 Y67.6092 
G01 X29.3493 Y67.4997 
G01 X29.0508 Y67.3560 
G01 X28.7702 Y67.1797 
G01 X28.5112 Y66.9731 
G01 X28.2769 Y66.7388 
G01 X28.0703 Y66.4798 
G01 X27.8940 Y66.1992 
G01 X27.7503 Y65.9007 
G01 X27.6408 Y65.5880 
G01 X27.5671 Y65.2649 
G01 X27.5300 Y64.9357 
G01 X27.5300 Y64.6043 
G01 X27.5671 Y64.2751 
G01 X27.6408 Y63.9520 
G01 X27.7503 Y63.6393 
G01 X27.8940 Y63.3408 
G01 X28.0300 Y63.1244 
G01 X28.0300 Y45.4648 
G01 X19.7603 Y37.1951 
G01 X19.5887 Y36.9800 
G01 X19.4423 Y36.7470 
G01 X19.3229 Y36.4991 
G01 X19.2320 Y36.2393 
G01 X19.1708 Y35.9710 
G01 X19.1400 Y35.6976 
G01 X19.1400 Y29.4048 
G01 X19.0960 Y29.4962 
G01 X18.9197 Y29.7768 
G01 X18.7131 Y30.0358 
G01 X18.4788 Y30.2701 
G01 X18.2198 Y30.4767 
G01 X17.9392 Y30.6530 
G01 X17.6407 Y30.7967 
G01 X17.3280 Y30.9062 
G01 X17.0049 Y30.9799 
G01 X16.6757 Y31.0170 
G01 X6.1843 Y31.0170 
G01 X5.8551 Y30.9799 
G01 X5.5320 Y30.9062 
G01 X5.2193 Y30.7967 
G01 X4.9208 Y30.6530 
G01 X4.6402 Y30.4767 
G01 X4.3812 Y30.2701 
G01 X4.1469 Y30.0358 
G01 X3.9403 Y29.7768 
G01 X3.7640 Y29.4962 
G01 X3.6203 Y29.1977 
G01 X3.5108 Y28.8849 
G01 X3.4371 Y28.5619 
G01 X3.4000 Y28.2327 
G01 X3.4000 Y27.9013 
G01 X3.4371 Y27.5721 
G01 X3.4836 Y27.3685 
G01 X3.4371 Y27.1649 
G01 X3.4000 Y26.8357 
G01 X3.4000 Y21.2973 
G01 X3.4371 Y20.9681 
G01 X3.5108 Y20.6450 
G01 X3.6203 Y20.3323 
G01 X3.7640 Y20.0338 
G01 X3.9403 Y19.7532 
G01 X4.1469 Y19.4942 
G01 X4.3812 Y19.2599 
G01 X5.4169 Y18.2242 
G01 X5.6512 Y17.9899 
G01 X5.9102 Y17.7833 
G01 X6.1908 Y17.6070 
G01 X6.4893 Y17.4633 
G01 X6.8020 Y17.3538 
G01 X7.1251 Y17.2801 
G01 X7.4543 Y17.2430 
G01 X13.9074 Y17.2430 
G01 X17.5831 Y13.5673 
G00 Z2.5400 
G00 X19.7651 Y4.6467 
G01 Z-0.1778 F254.00 
G01 X19.4840 Y4.7220 F508.00 
G01 X19.1955 Y4.7600 
G01 X18.9045 Y4.7600 
G01 X18.6160 Y4.7220 
G01 X18.3349 Y4.6467 
G01 X18.0660 Y4.5353 
G01 X17.8140 Y4.3898 
G01 X17.5831 Y4.2127 
G01 X17.3773 Y4.0069 
G01 X17.2002 Y3.7760 
G01 X17.0547 Y3.5240 
G01 X16.9433 Y3.2551 
G01 X16.8680 Y2.9740 
G01 X16.8300 Y2.6855 
G01 X16.8300 Y2.3945 
G01 X16.8680 Y2.1060 
G01 X16.9433 Y1.8249 
G01 X17.0547 Y1.5560 
G01 X17.2002 Y1.3040 
G01 X17.3773 Y1.0731 
G01 X17.5297 Y0.9207 
G01 X17.7355 Y0.7149 
G01 X17.9664 Y0.5378 
G01 X18.2184 Y0.3923 
G01 X18.4873 Y0.2809 
G01 X18.7684 Y0.2056 
G01 X19.0569 Y0.1676 
G01 X29.3555 Y0.1676 
G01 X29.6440 Y0.2056 
G01 X29.9251 Y0.2809 
G01 X30.1940 Y0.3923 
G01 X30.4460 Y0.5378 
G01 X30.6769 Y0.7149 
G01 X30.8827 Y0.9207 
G01 X31.0598 Y1.1516 
G01 X31.2053 Y1.4036 
G01 X31.3167 Y1.6725 
G01 X31.3920 Y1.9536 
G01 X31.4300 Y2.2421 
G01 X31.4300 Y2.5331 
G01 X31.3920 Y2.8216 
G01 X31.3167 Y3.1027 
G01 X31.2053 Y3.3716 
G01 X31.0598 Y3.6236 
G01 X30.8827 Y3.8545 
G01 X30.6769 Y4.0603 
G01 X30.4460 Y4.2374 
G01 X30.1940 Y4.3829 
G01 X29.9251 Y4.4943 
G01 X29.6440 Y4.5696 
G01 X29.3555 Y4.6076 
G01 X19.8595 Y4.6076 
G01 X19.7651 Y4.6467 
G00 Z2.5400 
G00 X34.1649 Y8.7239 
G01 Z-0.1778 F254.00 
G01 X34.5414 Y9.3761 F508.00 
G01 X35.0739 Y9.9086 
G01 X35.7261 Y10.2851 
G01 X36.4535 Y10.4800 
G01 X37.2065 Y10.4800 
G01 X37.9339 Y10.2851 
G01 X38.5861 Y9.9086 
G01 X39.1186 Y9.3761 
G01 X39.5279 Y8.6671 
G01 X39.5425 Y8.6317 
G01 X39.5611 Y8.6040 
G01 X39.5758 Y8.5741 
G01 X39.5993 Y8.5434 
G01 X39.6132 Y8.5194 
G01 X39.6318 Y8.4981 
G01 X39.6548 Y8.4637 
G01 X39.6784 Y8.4401 
G01 X39.6987 Y8.4137 
G01 X39.7302 Y8.3860 
G01 X39.7465 Y8.3674 
G01 X39.7665 Y8.3521 
G01 X39.7978 Y8.3207 
G01 X39.8255 Y8.3022 
G01 X39.8505 Y8.2802 
G01 X39.8893 Y8.2578 
G01 X39.9068 Y8.2443 
G01 X39.9270 Y8.2344 
G01 X39.9659 Y8.2084 
G01 X39.9967 Y8.1957 
G01 X40.0255 Y8.1790 
G01 X40.0703 Y8.1638 
G01 X40.0881 Y8.1549 
G01 X40.1076 Y8.1497 
G01 X40.1526 Y8.1311 
G01 X40.1853 Y8.1246 
G01 X40.2169 Y8.1138 
G01 X40.2657 Y8.1074 
G01 X40.2834 Y8.1026 
G01 X40.3018 Y8.1014 
G01 X40.3509 Y8.0916 
G01 X40.3842 Y8.0916 
G01 X40.4172 Y8.0873 
G01 X40.4678 Y8.0905 
G01 X40.4851 Y8.0894 
G01 X40.5022 Y8.0916 
G01 X40.5530 Y8.0916 
G01 X40.5857 Y8.0982 
G01 X40.6190 Y8.1003 
G01 X40.6687 Y8.1136 
G01 X40.6855 Y8.1158 
G01 X40.7013 Y8.1212 
G01 X40.7513 Y8.1311 
G01 X40.7821 Y8.1438 
G01 X40.8143 Y8.1524 
G01 X40.8605 Y8.1752 
G01 X40.8769 Y8.1808 
G01 X40.8915 Y8.1892 
G01 X40.9380 Y8.2085 
G01 X40.9657 Y8.2270 
G01 X40.9957 Y8.2417 
G01 X41.0361 Y8.2727 
G01 X41.0520 Y8.2818 
G01 X41.0652 Y8.2934 
G01 X41.1061 Y8.3208 
G01 X41.1297 Y8.3443 
G01 X41.1561 Y8.3646 
G01 X41.1890 Y8.4020 
G01 X41.2040 Y8.4151 
G01 X41.2155 Y8.4302 
G01 X41.2773 Y8.4920 
G01 X41.3609 Y8.5755 
G01 X41.3992 Y8.6328 
G01 X41.4732 Y8.7436 
G01 X41.5395 Y8.9038 
G01 X41.5506 Y8.9304 
G01 X41.5706 Y9.0312 
G01 X41.5900 Y9.1286 
G01 X41.5900 Y11.1914 
G01 X41.5506 Y11.3896 
G01 X41.4732 Y11.5764 
G01 X41.3609 Y11.7444 
G01 X41.2180 Y11.8874 
G01 X40.8914 Y12.2139 
G01 X40.5223 Y12.8533 
G01 X40.5035 Y12.9086 
G01 X40.4860 Y12.9738 
G01 X40.4711 Y13.0041 
G01 X40.4602 Y13.0362 
G01 X40.4265 Y13.0946 
G01 X40.4219 Y13.1039 
G01 X40.2692 Y13.6737 
G01 X40.2692 Y14.2663 
G01 X40.4219 Y14.8361 
G01 X40.4265 Y14.8454 
G01 X40.4602 Y14.9038 
G01 X40.4711 Y14.9359 
G01 X40.4860 Y14.9662 
G01 X40.5035 Y15.0313 
G01 X40.5223 Y15.0867 
G01 X40.8914 Y15.7261 
G01 X41.4239 Y16.2586 
G01 X42.0761 Y16.6351 
G01 X42.8035 Y16.8300 
G01 X43.5565 Y16.8300 
G01 X44.2839 Y16.6351 
G01 X44.8716 Y16.2958 
G01 X44.9277 Y16.2583 
G01 X44.9590 Y16.2454 
G01 X44.9882 Y16.2285 
G01 X45.0521 Y16.2068 
G01 X45.1145 Y16.1809 
G01 X45.1476 Y16.1744 
G01 X45.1796 Y16.1635 
G01 X45.2466 Y16.1547 
G01 X45.3127 Y16.1415 
G01 X45.3465 Y16.1415 
G01 X45.3801 Y16.1371 
G01 X45.4474 Y16.1415 
G01 X45.5149 Y16.1415 
G01 X45.5480 Y16.1481 
G01 X45.5818 Y16.1503 
G01 X45.6470 Y16.1678 
G01 X45.7131 Y16.1809 
G01 X45.7444 Y16.1939 
G01 X45.7770 Y16.2026 
G01 X45.8376 Y16.2325 
G01 X45.8999 Y16.2583 
G01 X45.9280 Y16.2771 
G01 X45.9583 Y16.2920 
G01 X46.0118 Y16.3331 
G01 X46.0680 Y16.3706 
G01 X46.0919 Y16.3945 
G01 X46.1187 Y16.4151 
G01 X46.1632 Y16.4658 
G01 X46.2109 Y16.5135 
G01 X46.2297 Y16.5417 
G01 X46.2520 Y16.5671 
G01 X46.2857 Y16.6255 
G01 X46.3232 Y16.6816 
G01 X46.3361 Y16.7129 
G01 X46.3530 Y16.7421 
G01 X46.3747 Y16.8060 
G01 X46.4006 Y16.8684 
G01 X46.4072 Y16.9015 
G01 X46.4180 Y16.9335 
G01 X46.4268 Y17.0005 
G01 X46.4400 Y17.0666 
G01 X46.4400 Y17.1004 
G01 X46.4444 Y17.1340 
G01 X46.4400 Y17.2013 
G01 X46.4400 Y19.2881 
G01 X46.4006 Y19.4864 
G01 X46.3232 Y19.6732 
G01 X46.2497 Y19.7832 
G01 X46.2109 Y19.8412 
G01 X46.0680 Y19.9842 
G01 X45.9534 Y20.0607 
G01 X45.8999 Y20.0965 
G01 X45.7131 Y20.1738 
G01 X45.2984 Y20.2563 
G01 X44.0846 Y20.7591 
G01 X42.9921 Y21.4891 
G01 X42.0631 Y22.4181 
G01 X41.3331 Y23.5106 
G01 X40.8303 Y24.7244 
G01 X40.5740 Y26.0131 
G01 X40.5740 Y27.3269 
G01 X40.8303 Y28.6156 
G01 X41.3331 Y29.8294 
G01 X42.0631 Y30.9219 
G01 X42.9921 Y31.8509 
G01 X44.0846 Y32.5809 
G01 X45.2984 Y33.0837 
G01 X45.7131 Y33.1662 
G01 X45.8999 Y33.2435 
G01 X45.9579 Y33.2823 
G01 X46.0680 Y33.3558 
G01 X46.2087 Y33.4965 
G01 X46.2467 Y33.5523 
G01 X46.3232 Y33.6668 
G01 X46.4006 Y33.8536 
G01 X46.4400 Y34.0518 
G01 X46.4400 Y40.2970 
G01 X46.5211 Y40.3438 
G01 X46.7229 Y40.4986 
G01 X46.9028 Y40.6785 
G01 X47.0576 Y40.8803 
G01 X47.0800 Y40.9191 
G01 X47.0800 Y1.1324 
G01 X47.1108 Y0.8590 
G01 X47.1720 Y0.5907 
G01 X47.2629 Y0.3309 
G01 X47.3823 Y0.0830 
G01 X47.5287 Y-0.1500 
G01 X47.7003 Y-0.3651 
G01 X47.8949 Y-0.5597 
G01 X48.1100 Y-0.7313 
G01 X48.3430 Y-0.8777 
G01 X48.5909 Y-0.9971 
G01 X48.8507 Y-1.0880 
G01 X49.1190 Y-1.1492 
G01 X49.3924 Y-1.1800 
G01 X49.6676 Y-1.1800 
G01 X49.9410 Y-1.1492 
G01 X50.2093 Y-1.0880 
G01 X50.4691 Y-0.9971 
G01 X50.7170 Y-0.8777 
G01 X50.9500 Y-0.7313 
G01 X51.1651 Y-0.5597 
G01 X51.3597 Y-0.3651 
G01 X51.5313 Y-0.1500 
G01 X51.6777 Y0.0830 
G01 X51.7971 Y0.3309 
G01 X51.8880 Y0.5907 
G01 X51.9492 Y0.8590 
G01 X51.9800 Y1.1324 
G01 X51.9800 Y46.8216 
G01 X51.9492 Y47.0950 
G01 X51.8880 Y47.3633 
G01 X51.7971 Y47.6230 
G01 X51.6777 Y47.8710 
G01 X51.5313 Y48.1040 
G01 X51.3597 Y48.3191 
G01 X51.1651 Y48.5137 
G01 X50.8591 Y48.8197 
G01 X50.6440 Y48.9913 
G01 X50.4110 Y49.1377 
G01 X50.1631 Y49.2571 
G01 X49.9033 Y49.3480 
G01 X49.6350 Y49.4092 
G01 X49.3616 Y49.4400 
G01 X47.9400 Y49.4400 
G01 X47.9400 Y63.7332 
G01 X47.9871 Y63.8309 
G01 X48.0780 Y64.0907 
G01 X48.1392 Y64.3590 
G01 X48.1700 Y64.6324 
G01 X48.1700 Y64.9076 
G01 X48.1392 Y65.1810 
G01 X48.0780 Y65.4493 
G01 X47.9871 Y65.7091 
G01 X47.8677 Y65.9570 
G01 X47.7213 Y66.1900 
G01 X47.5497 Y66.4051 
G01 X47.3551 Y66.5997 
G01 X47.1400 Y66.7713 
G01 X46.9070 Y66.9177 
G01 X46.6591 Y67.0371 
G01 X46.3993 Y67.1280 
G01 X46.1310 Y67.1892 
G01 X45.8576 Y67.2200 
G01 X45.5824 Y67.2200 
G01 X45.3090 Y67.1892 
G01 X45.0407 Y67.1280 
G01 X44.7809 Y67.0371 
G01 X44.5330 Y66.9177 
G01 X44.3000 Y66.7713 
G01 X44.0849 Y66.5997 
G01 X42.6203 Y65.1351 
G01 X42.4487 Y64.9200 
G01 X42.3023 Y64.6870 
G01 X42.1829 Y64.4391 
G01 X42.0920 Y64.1793 
G01 X42.0308 Y63.9110 
G01 X42.0000 Y63.6376 
G01 X42.0000 Y49.1846 
G01 X39.2499 Y49.1846 
G01 X38.9614 Y49.1466 
G01 X38.6803 Y49.0713 
G01 X38.4114 Y48.9599 
G01 X38.1594 Y48.8144 
G01 X37.9285 Y48.6373 
G01 X37.7227 Y48.4315 
G01 X37.5456 Y48.2006 
G01 X37.4001 Y47.9486 
G01 X37.2887 Y47.6797 
G01 X37.2134 Y47.3986 
G01 X37.1754 Y47.1101 
G01 X37.1754 Y46.8191 
G01 X37.2134 Y46.5306 
G01 X37.2887 Y46.2495 
G01 X37.4001 Y45.9806 
G01 X37.5456 Y45.7286 
G01 X37.7227 Y45.4977 
G01 X37.9285 Y45.2919 
G01 X38.1594 Y45.1148 
G01 X38.4114 Y44.9693 
G01 X38.6803 Y44.8579 
G01 X38.9614 Y44.7826 
G01 X39.2499 Y44.7446 
G01 X43.4132 Y44.7446 
G01 X43.5109 Y44.6975 
G01 X43.7707 Y44.6066 
G01 X44.0390 Y44.5454 
G01 X44.3124 Y44.5146 
G01 X44.5876 Y44.5146 
G01 X44.8130 Y44.5400 
G01 X47.0800 Y44.5400 
G01 X47.0800 Y43.0025 
G01 X47.0576 Y43.0413 
G01 X46.9028 Y43.2431 
G01 X46.7229 Y43.4230 
G01 X46.5211 Y43.5778 
G01 X46.3007 Y43.7050 
G01 X46.0657 Y43.8024 
G01 X45.8200 Y43.8682 
G01 X45.5678 Y43.9014 
G01 X45.1433 Y43.9014 
G01 X45.1204 Y43.9044 
G01 X45.0745 Y43.9014 
G01 X43.9432 Y43.9014 
G01 X43.3803 Y44.0522 
G01 X43.3491 Y44.0652 
G01 X43.2829 Y44.0783 
G01 X43.2177 Y44.0958 
G01 X43.1839 Y44.0980 
G01 X43.1508 Y44.1046 
G01 X43.0833 Y44.1046 
G01 X43.0160 Y44.1090 
G01 X42.9825 Y44.1046 
G01 X39.0189 Y44.1046 
G01 X38.2915 Y44.2995 
G01 X37.6393 Y44.6760 
G01 X37.1068 Y45.2085 
G01 X36.7303 Y45.8607 
G01 X36.5354 Y46.5881 
G01 X36.5354 Y47.3411 
G01 X36.7303 Y48.0685 
G01 X37.1068 Y48.7207 
G01 X37.6393 Y49.2532 
G01 X38.2915 Y49.6297 
G01 X39.0189 Y49.8246 
G01 X40.4349 Y49.8246 
G01 X40.6331 Y49.8640 
G01 X40.8199 Y49.9414 
G01 X40.9880 Y50.0537 
G01 X41.1309 Y50.1966 
G01 X41.2432 Y50.3647 
G01 X41.3206 Y50.5515 
G01 X41.3600 Y50.7497 
G01 X41.3600 Y59.7911 
G01 X41.3206 Y59.9893 
G01 X41.2432 Y60.1761 
G01 X41.1309 Y60.3442 
G01 X40.9880 Y60.4871 
G01 X40.8199 Y60.5994 
G01 X40.6331 Y60.6768 
G01 X40.4349 Y60.7162 
G01 X37.9989 Y60.7162 
G01 X37.8007 Y60.6768 
G01 X37.6139 Y60.5994 
G01 X37.4458 Y60.4871 
G01 X37.3029 Y60.3442 
G01 X33.7991 Y56.8404 
G01 X33.6868 Y56.6723 
G01 X33.6094 Y56.4855 
G01 X33.5700 Y56.2873 
G01 X33.5700 Y44.0432 
G01 X33.3594 Y43.2573 
G01 X32.9526 Y42.5527 
G01 X24.9091 Y34.5092 
G01 X24.7968 Y34.3411 
G01 X24.7194 Y34.1543 
G01 X24.6800 Y33.9561 
G01 X24.6800 Y30.8139 
G01 X24.7109 Y30.6584 
G01 X24.7194 Y30.6156 
G01 X24.7547 Y30.5305 
G01 X24.7968 Y30.4289 
G01 X24.9091 Y30.2608 
G01 X25.0520 Y30.1179 
G01 X25.1808 Y29.9891 
G01 X25.3489 Y29.8768 
G01 X25.5357 Y29.7994 
G01 X25.6562 Y29.7755 
G01 X25.7339 Y29.7600 
G01 X28.3468 Y29.7600 
G01 X29.1327 Y29.5494 
G01 X29.2424 Y29.4861 
G01 X29.2692 Y29.4655 
G01 X29.3297 Y29.4357 
G01 X29.3881 Y29.4019 
G01 X29.4202 Y29.3911 
G01 X29.4505 Y29.3761 
G01 X29.5156 Y29.3587 
G01 X29.5795 Y29.3370 
G01 X29.6131 Y29.3325 
G01 X30.1115 Y29.1990 
G01 X30.7303 Y28.8417 
G01 X31.2357 Y28.3364 
G01 X31.5929 Y27.7176 
G01 X31.7779 Y27.0273 
G01 X31.7779 Y26.3127 
G01 X31.5929 Y25.6224 
G01 X31.2357 Y25.0036 
G01 X30.9626 Y24.7306 
G01 X30.8914 Y24.6593 
G01 X30.8197 Y24.5876 
G01 X30.7667 Y24.5083 
G01 X30.7074 Y24.4196 
G01 X30.6701 Y24.3296 
G01 X30.6300 Y24.2328 
G01 X30.6095 Y24.1297 
G01 X30.5906 Y24.0346 
G01 X30.5906 Y23.9338 
G01 X30.5906 Y23.8324 
G01 X30.6130 Y23.7196 
G01 X30.6300 Y23.6342 
G01 X30.6728 Y23.5309 
G01 X30.7074 Y23.4474 
G01 X30.7613 Y23.3667 
G01 X30.7980 Y23.3118 
G01 X30.8686 Y23.1895 
G01 X30.8815 Y23.1583 
G01 X30.9190 Y23.1022 
G01 X30.9528 Y23.0438 
G01 X30.9750 Y23.0183 
G01 X30.9938 Y22.9902 
G01 X31.0416 Y22.9425 
G01 X31.0860 Y22.8918 
G01 X31.1129 Y22.8712 
G01 X31.2357 Y22.7484 
G01 X31.5929 Y22.1296 
G01 X31.7779 Y21.4393 
G01 X31.7779 Y20.7247 
G01 X31.5929 Y20.0344 
G01 X31.2357 Y19.4156 
G01 X31.1129 Y19.2928 
G01 X31.0860 Y19.2722 
G01 X31.0416 Y19.2215 
G01 X30.9938 Y19.1738 
G01 X30.9750 Y19.1457 
G01 X30.9528 Y19.1202 
G01 X30.9190 Y19.0618 
G01 X30.8815 Y19.0057 
G01 X30.8686 Y18.9745 
G01 X30.8127 Y18.8777 
G01 X30.1443 Y18.2093 
G01 X29.3257 Y17.7367 
G01 X28.4126 Y17.4920 
G01 X27.3205 Y17.4920 
G01 X27.2532 Y17.4964 
G01 X27.2196 Y17.4920 
G01 X27.1858 Y17.4920 
G01 X27.1197 Y17.4788 
G01 X27.0527 Y17.4700 
G01 X27.0207 Y17.4592 
G01 X26.9876 Y17.4526 
G01 X26.9252 Y17.4267 
G01 X26.8613 Y17.4050 
G01 X26.8320 Y17.3881 
G01 X26.8008 Y17.3752 
G01 X26.7447 Y17.3377 
G01 X26.6863 Y17.3040 
G01 X26.6608 Y17.2817 
G01 X26.6327 Y17.2629 
G01 X26.5850 Y17.2152 
G01 X26.5343 Y17.1707 
G01 X26.5137 Y17.1439 
G01 X26.4898 Y17.1200 
G01 X26.4523 Y17.0639 
G01 X26.4112 Y17.0103 
G01 X26.3963 Y16.9800 
G01 X26.3775 Y16.9519 
G01 X26.3517 Y16.8895 
G01 X26.3218 Y16.8290 
G01 X26.3131 Y16.7964 
G01 X26.3001 Y16.7651 
G01 X26.2870 Y16.6989 
G01 X26.2053 Y16.3943 
G01 X25.7327 Y15.5757 
G01 X24.4293 Y14.2723 
G01 X23.6107 Y13.7997 
G01 X22.6976 Y13.5550 
G01 X21.7336 Y13.5550 
G01 X21.5354 Y13.5156 
G01 X21.3486 Y13.4382 
G01 X21.1806 Y13.3259 
G01 X21.0376 Y13.1830 
G01 X20.8061 Y12.9514 
G01 X20.1539 Y12.5749 
G01 X19.4265 Y12.3800 
G01 X18.6735 Y12.3800 
G01 X17.9461 Y12.5749 
G01 X17.2939 Y12.9514 
G01 X13.8714 Y16.3739 
G01 X13.7034 Y16.4862 
G01 X13.5166 Y16.5636 
G01 X13.3184 Y16.6030 
G01 X7.1474 Y16.6030 
G01 X6.5028 Y16.7757 
G01 X6.4715 Y16.7887 
G01 X6.4053 Y16.8018 
G01 X6.3402 Y16.8193 
G01 X6.3064 Y16.8215 
G01 X6.2733 Y16.8281 
G01 X6.2058 Y16.8281 
G01 X6.1385 Y16.8325 
G01 X6.1049 Y16.8281 
G01 X6.0711 Y16.8281 
G01 X6.0049 Y16.8149 
G01 X5.9380 Y16.8061 
G01 X5.9060 Y16.7952 
G01 X5.8729 Y16.7887 
G01 X5.8105 Y16.7628 
G01 X5.7466 Y16.7411 
G01 X5.7173 Y16.7242 
G01 X5.6861 Y16.7113 
G01 X5.6300 Y16.6738 
G01 X5.5716 Y16.6401 
G01 X5.5461 Y16.6178 
G01 X5.5180 Y16.5990 
G01 X5.4703 Y16.5513 
G01 X5.4196 Y16.5068 
G01 X5.3990 Y16.4800 
G01 X5.3751 Y16.4561 
G01 X5.3376 Y16.3999 
G01 X5.2965 Y16.3464 
G01 X5.2816 Y16.3161 
G01 X5.2628 Y16.2880 
G01 X5.2370 Y16.2256 
G01 X5.2071 Y16.1651 
G01 X5.1984 Y16.1325 
G01 X5.1854 Y16.1012 
G01 X5.1723 Y16.0350 
G01 X5.1548 Y15.9699 
G01 X5.1526 Y15.9361 
G01 X5.1460 Y15.9030 
G01 X5.1460 Y15.8355 
G01 X5.1416 Y15.7682 
G01 X5.1460 Y15.7346 
G01 X5.1460 Y3.5311 
G01 X5.1854 Y3.3329 
G01 X5.2628 Y3.1461 
G01 X5.3751 Y2.9780 
G01 X5.5180 Y2.8351 
G01 X5.6861 Y2.7228 
G01 X5.8729 Y2.6454 
G01 X6.0711 Y2.6060 
G01 X15.2858 Y2.6060 
G01 X15.3531 Y2.6016 
G01 X15.3866 Y2.6060 
G01 X15.4204 Y2.6060 
G01 X15.4866 Y2.6192 
G01 X15.5535 Y2.6280 
G01 X15.5855 Y2.6388 
G01 X15.6187 Y2.6454 
G01 X15.6810 Y2.6712 
G01 X15.7449 Y2.6929 
G01 X15.7742 Y2.7099 
G01 X15.8055 Y2.7228 
G01 X15.8615 Y2.7603 
G01 X15.9200 Y2.7940 
G01 X15.9454 Y2.8163 
G01 X15.9735 Y2.8351 
G01 X16.0213 Y2.8828 
G01 X16.0720 Y2.9273 
G01 X16.0925 Y2.9541 
G01 X16.1165 Y2.9780 
G01 X16.1540 Y3.0341 
G01 X16.1950 Y3.0877 
G01 X16.2100 Y3.1180 
G01 X16.2288 Y3.1461 
G01 X16.2546 Y3.2084 
G01 X16.2844 Y3.2690 
G01 X16.2932 Y3.3016 
G01 X16.3061 Y3.3329 
G01 X16.3193 Y3.3990 
G01 X16.3849 Y3.6439 
G01 X16.7614 Y4.2961 
G01 X17.2939 Y4.8286 
G01 X17.9461 Y5.2051 
G01 X18.6735 Y5.4000 
G01 X19.4265 Y5.4000 
G01 X19.7998 Y5.3000 
G01 X19.8311 Y5.2870 
G01 X19.8972 Y5.2739 
G01 X19.9624 Y5.2564 
G01 X19.9962 Y5.2542 
G01 X20.0293 Y5.2476 
G01 X20.0968 Y5.2476 
G01 X20.1641 Y5.2432 
G01 X20.1976 Y5.2476 
G01 X29.5865 Y5.2476 
G01 X30.3139 Y5.0527 
G01 X30.9661 Y4.6762 
G01 X31.4986 Y4.1437 
G01 X31.8751 Y3.4915 
G01 X31.8999 Y3.3991 
G01 X31.9130 Y3.3329 
G01 X31.9260 Y3.3016 
G01 X31.9347 Y3.2690 
G01 X31.9646 Y3.2085 
G01 X31.9904 Y3.1461 
G01 X32.0092 Y3.1180 
G01 X32.0241 Y3.0877 
G01 X32.0652 Y3.0342 
G01 X32.1027 Y2.9780 
G01 X32.1266 Y2.9541 
G01 X32.1472 Y2.9273 
G01 X32.1979 Y2.8828 
G01 X32.2456 Y2.8351 
G01 X32.2738 Y2.8163 
G01 X32.2992 Y2.7940 
G01 X32.3576 Y2.7603 
G01 X32.4137 Y2.7228 
G01 X32.4449 Y2.7099 
G01 X32.4742 Y2.6929 
G01 X32.5381 Y2.6713 
G01 X32.6005 Y2.6454 
G01 X32.6336 Y2.6388 
G01 X32.6656 Y2.6280 
G01 X32.7325 Y2.6192 
G01 X32.7987 Y2.6060 
G01 X32.8325 Y2.6060 
G01 X32.8661 Y2.6016 
G01 X32.9334 Y2.6060 
G01 X33.0449 Y2.6060 
G01 X33.2431 Y2.6454 
G01 X33.4299 Y2.7228 
G01 X33.5980 Y2.8351 
G01 X33.7409 Y2.9780 
G01 X33.8532 Y3.1461 
G01 X33.9306 Y3.3329 
G01 X33.9700 Y3.5311 
G01 X33.9700 Y7.9965 
G01 X34.1649 Y8.7239 
G00 Z2.5400 
G00 X41.0272 Y14.5882 
G01 Z-0.1778 F254.00 
G01 X40.9489 Y14.3471 F508.00 
G01 X40.9092 Y14.0967 
G01 X40.9092 Y13.8433 
G01 X40.9489 Y13.5929 
G01 X41.0272 Y13.3518 
G01 X41.0697 Y13.2684 
G01 X41.0733 Y13.2549 
G01 X41.1847 Y12.9860 
G01 X41.3302 Y12.7340 
G01 X41.5073 Y12.5031 
G01 X42.2300 Y11.7804 
G01 X42.2300 Y8.5396 
G01 X40.2373 Y6.5469 
G01 X40.0602 Y6.3160 
G01 X39.9147 Y6.0640 
G01 X39.8033 Y5.7951 
G01 X39.7280 Y5.5140 
G01 X39.6900 Y5.2255 
G01 X39.6900 Y2.3945 
G01 X39.7280 Y2.1060 
G01 X39.8033 Y1.8249 
G01 X39.9147 Y1.5560 
G01 X40.0602 Y1.3040 
G01 X40.2373 Y1.0731 
G01 X40.4431 Y0.8673 
G01 X40.6740 Y0.6902 
G01 X40.9260 Y0.5447 
G01 X41.1949 Y0.4333 
G01 X41.4760 Y0.3580 
G01 X41.7645 Y0.3200 
G01 X42.0555 Y0.3200 
G01 X42.3440 Y0.3580 
G01 X42.6251 Y0.4333 
G01 X42.8940 Y0.5447 
G01 X43.1460 Y0.6902 
G01 X43.3769 Y0.8673 
G01 X43.5827 Y1.0731 
G01 X43.7598 Y1.3040 
G01 X43.9053 Y1.5560 
G01 X44.0167 Y1.8249 
G01 X44.0920 Y2.1060 
G01 X44.1300 Y2.3945 
G01 X44.1300 Y4.1604 
G01 X46.1227 Y6.1531 
G01 X46.2998 Y6.3840 
G01 X46.4453 Y6.6360 
G01 X46.5567 Y6.9049 
G01 X46.6320 Y7.1860 
G01 X46.6700 Y7.4745 
G01 X46.6700 Y12.8455 
G01 X46.6320 Y13.1340 
G01 X46.5567 Y13.4151 
G01 X46.4453 Y13.6840 
G01 X46.2998 Y13.9360 
G01 X46.1227 Y14.1669 
G01 X45.9169 Y14.3727 
G01 X44.6469 Y15.6427 
G01 X44.4160 Y15.8198 
G01 X44.1640 Y15.9653 
G01 X43.8951 Y16.0767 
G01 X43.6140 Y16.1520 
G01 X43.3255 Y16.1900 
G01 X43.0345 Y16.1900 
G01 X42.7460 Y16.1520 
G01 X42.4649 Y16.0767 
G01 X42.1960 Y15.9653 
G01 X41.9440 Y15.8198 
G01 X41.7131 Y15.6427 
G01 X41.5073 Y15.4369 
G01 X41.3302 Y15.2060 
G01 X41.1847 Y14.9540 
G01 X41.0733 Y14.6851 
G01 X41.0697 Y14.6716 
G01 X41.0272 Y14.5882 
G00 Z2.5400 
G00 X7.2780 Y60.5338 
G01 Z-0.1778 F254.00 
G01 X7.6011 Y60.4601 F508.00 
G01 X7.9303 Y60.4230 
G01 X16.6757 Y60.4230 
G01 X17.0049 Y60.4601 
G01 X17.3280 Y60.5338 
G01 X17.6407 Y60.6433 
G01 X17.9392 Y60.7870 
G01 X18.2198 Y60.9633 
G01 X18.4788 Y61.1699 
G01 X18.7131 Y61.4042 
G01 X18.9197 Y61.6632 
G01 X19.0960 Y61.9438 
G01 X19.2397 Y62.2423 
G01 X19.3492 Y62.5550 
G01 X19.4229 Y62.8781 
G01 X19.4600 Y63.2073 
G01 X19.4600 Y63.5387 
G01 X19.4229 Y63.8679 
G01 X19.3492 Y64.1910 
G01 X19.2397 Y64.5037 
G01 X19.0960 Y64.8022 
G01 X18.9197 Y65.0828 
G01 X18.7131 Y65.3418 
G01 X18.4788 Y65.5761 
G01 X18.2198 Y65.7827 
G01 X17.9392 Y65.9590 
G01 X17.6407 Y66.1027 
G01 X17.3280 Y66.2122 
G01 X17.0049 Y66.2859 
G01 X16.6757 Y66.3230 
G01 X9.3000 Y66.3230 
G01 X9.3000 Y71.2857 
G01 X9.2629 Y71.6149 
G01 X9.1892 Y71.9380 
G01 X9.0797 Y72.2507 
G01 X8.9360 Y72.5492 
G01 X8.7597 Y72.8298 
G01 X8.5531 Y73.0888 
G01 X8.3188 Y73.3231 
G01 X8.0598 Y73.5297 
G01 X7.7792 Y73.7060 
G01 X7.4807 Y73.8497 
G01 X7.1680 Y73.9592 
G01 X6.8449 Y74.0329 
G01 X6.5157 Y74.0700 
G01 X6.1843 Y74.0700 
G01 X5.8551 Y74.0329 
G01 X5.5320 Y73.9592 
G01 X5.2193 Y73.8497 
G01 X4.9208 Y73.7060 
G01 X4.6402 Y73.5297 
G01 X4.3812 Y73.3231 
G01 X4.1469 Y73.0888 
G01 X3.9403 Y72.8298 
G01 X3.7640 Y72.5492 
G01 X3.6203 Y72.2507 
G01 X3.5108 Y71.9380 
G01 X3.4371 Y71.6149 
G01 X3.4000 Y71.2857 
G01 X3.4000 Y63.2073 
G01 X3.4371 Y62.8781 
G01 X3.5108 Y62.5550 
G01 X3.6203 Y62.2423 
G01 X3.7640 Y61.9438 
G01 X3.9403 Y61.6632 
G01 X4.1469 Y61.4042 
G01 X4.3812 Y61.1699 
G01 X4.6402 Y60.9633 
G01 X4.9208 Y60.7870 
G01 X5.2193 Y60.6433 
G01 X5.5320 Y60.5338 
G01 X5.8551 Y60.4601 
G01 X6.1843 Y60.4230 
G01 X6.5157 Y60.4230 
G01 X6.8449 Y60.4601 
G01 X7.1680 Y60.5338 
G01 X7.2230 Y60.5531 
G01 X7.2780 Y60.5338 
G00 Z2.5400 
G00 X7.1680 Y51.2262 
G01 Z-0.1778 F254.00 
G01 X6.8449 Y51.2999 F508.00 
G01 X6.5157 Y51.3370 
G01 X6.1843 Y51.3370 
G01 X5.8551 Y51.2999 
G01 X5.5320 Y51.2262 
G01 X5.2193 Y51.1167 
G01 X4.9208 Y50.9730 
G01 X4.6402 Y50.7967 
G01 X4.3812 Y50.5901 
G01 X4.1469 Y50.3558 
G01 X3.9403 Y50.0968 
G01 X3.7640 Y49.8162 
G01 X3.6203 Y49.5177 
G01 X3.5108 Y49.2050 
G01 X3.4371 Y48.8819 
G01 X3.4000 Y48.5527 
G01 X3.4000 Y43.0143 
G01 X3.4371 Y42.6851 
G01 X3.5108 Y42.3620 
G01 X3.6203 Y42.0493 
G01 X3.7640 Y41.7508 
G01 X3.9403 Y41.4702 
G01 X4.1469 Y41.2112 
G01 X4.3812 Y40.9769 
G01 X4.6402 Y40.7703 
G01 X4.9208 Y40.5940 
G01 X5.2193 Y40.4503 
G01 X5.5320 Y40.3408 
G01 X5.8551 Y40.2671 
G01 X6.1843 Y40.2300 
G01 X15.6458 Y40.2300 
G01 X15.6920 Y40.2138 
G01 X16.0151 Y40.1401 
G01 X16.3443 Y40.1030 
G01 X16.6757 Y40.1030 
G01 X17.0049 Y40.1401 
G01 X17.3280 Y40.2138 
G01 X17.6407 Y40.3233 
G01 X17.9392 Y40.4670 
G01 X18.2198 Y40.6433 
G01 X18.4788 Y40.8499 
G01 X18.7131 Y41.0842 
G01 X18.9197 Y41.3432 
G01 X19.0960 Y41.6238 
G01 X19.2397 Y41.9223 
G01 X19.3492 Y42.2350 
G01 X19.4229 Y42.5581 
G01 X19.4600 Y42.8873 
G01 X19.4600 Y48.5527 
G01 X19.4229 Y48.8819 
G01 X19.3492 Y49.2050 
G01 X19.2397 Y49.5177 
G01 X19.0960 Y49.8162 
G01 X18.9197 Y50.0968 
G01 X18.7131 Y50.3558 
G01 X18.4788 Y50.5901 
G01 X18.2198 Y50.7967 
G01 X17.9392 Y50.9730 
G01 X17.6407 Y51.1167 
G01 X17.3280 Y51.2262 
G01 X17.0049 Y51.2999 
G01 X16.6757 Y51.3370 
G01 X16.3443 Y51.3370 
G01 X16.0151 Y51.2999 
G01 X15.6920 Y51.2262 
G01 X15.6458 Y51.2100 
G01 X7.2142 Y51.2100 
G01 X7.1680 Y51.2262 
G00 Z2.5400 
G00 X34.6100 Y7.7655 
G01 Z-0.1778 F254.00 
G01 X34.6100 Y2.3945 F508.00 
G01 X34.6480 Y2.1060 
G01 X34.7233 Y1.8249 
G01 X34.8347 Y1.5560 
G01 X34.9802 Y1.3040 
G01 X35.1573 Y1.0731 
G01 X35.3631 Y0.8673 
G01 X35.5940 Y0.6902 
G01 X35.8460 Y0.5447 
G01 X36.1149 Y0.4333 
G01 X36.3960 Y0.3580 
G01 X36.6845 Y0.3200 
G01 X36.9755 Y0.3200 
G01 X37.2640 Y0.3580 
G01 X37.5451 Y0.4333 
G01 X37.8140 Y0.5447 
G01 X38.0660 Y0.6902 
G01 X38.2969 Y0.8673 
G01 X38.5027 Y1.0731 
G01 X38.6798 Y1.3040 
G01 X38.8253 Y1.5560 
G01 X38.9367 Y1.8249 
G01 X39.0120 Y2.1060 
G01 X39.0500 Y2.3945 
G01 X39.0500 Y7.7655 
G01 X39.0120 Y8.0540 
G01 X38.9367 Y8.3351 
G01 X38.8253 Y8.6040 
G01 X38.6798 Y8.8560 
G01 X38.5027 Y9.0869 
G01 X38.2969 Y9.2927 
G01 X38.0660 Y9.4698 
G01 X37.8140 Y9.6153 
G01 X37.5451 Y9.7267 
G01 X37.2640 Y9.8020 
G01 X36.9755 Y9.8400 
G01 X36.6845 Y9.8400 
G01 X36.3960 Y9.8020 
G01 X36.1149 Y9.7267 
G01 X35.8460 Y9.6153 
G01 X35.5940 Y9.4698 
G01 X35.3631 Y9.2927 
G01 X35.1573 Y9.0869 
G01 X34.9802 Y8.8560 
G01 X34.8347 Y8.6040 
G01 X34.7233 Y8.3351 
G01 X34.6480 Y8.0540 
G01 X34.6100 Y7.7655 
G00 Z2.5400 
G00 X19.7100 Y27.2716 
G01 Z-0.1778 F254.00 
G01 X19.7880 Y27.1936 F508.00 
